; generated by PrusaSlicer 2.2.0+win64 on 2020-04-06 at 12:32:01 UTC

; 

; external perimeters extrusion width = 0.60mm
; perimeters extrusion width = 0.50mm
; infill extrusion width = 0.50mm
; solid infill extrusion width = 0.50mm
; top infill extrusion width = 0.45mm
; first layer extrusion width = 0.42mm

M73 P0 R35
M73 Q0 S35
M201 X1000 Y1000 Z1000 E5000 ; sets maximum accelerations, mm/sec^2
M203 X200 Y200 Z12 E120 ; sets maximum feedrates, mm/sec
M204 P1250 R1250 T1250 ; sets acceleration (P, T) and retract acceleration (R), mm/sec^2
M205 X8.00 Y8.00 Z0.40 E4.50 ; sets the jerk limits, mm/sec
M205 S0 T0 ; sets the minimum extruding and travel feed rate, mm/sec
M107
M862.3 P "MK3S" ; printer model check
M862.1 P0.4 ; nozzle diameter check
M115 U3.8.1 ; tell printer latest fw version
G90 ; use absolute coordinates
M83 ; extruder relative mode
M104 S215 ; set extruder temp
M140 S60 ; set bed temp
M190 S60 ; wait for bed temp
M109 S215 ; wait for extruder temp
G28 W ; home all without mesh bed level
G80 ; mesh bed leveling
G1 Y-3.0 F1000.0 ; go outside print area
G92 E0.0
G1 X60.0 E9.0 F1000.0 ; intro line
M73 Q0 S35
M73 P0 R35
G1 X100.0 E12.5 F1000.0 ; intro line
G92 E0.0
M221 S95
G21 ; set units to millimeters
G90 ; use absolute coordinates
M83 ; use relative distances for extrusion
M900 K30 ; Filament gcode
;BEFORE_LAYER_CHANGE
G92 E0.0
;0.2


G1 E-0.80000 F2100.00000
G1 Z0.600 F10800.000
;AFTER_LAYER_CHANGE
;0.2
G1 X108.748 Y99.623
G1 Z0.200
G1 E0.80000 F2100.00000
M204 S1000
G1 F1200.000
G1 X109.677 Y98.804 E0.03885
G1 X110.917 Y98.136 E0.04414
G1 X111.937 Y97.845 E0.03325
G1 X112.961 Y97.746 E0.03228
G1 X140.004 Y97.746 E0.84791
G1 X140.870 Y97.887 E0.02752
G1 X141.648 Y98.294 E0.02752
G1 X142.259 Y98.924 E0.02752
G1 X142.640 Y99.715 E0.02752
G1 X142.754 Y100.462 E0.02371
G1 X142.736 Y106.949 E0.20338
G1 X142.626 Y107.700 E0.02380
G1 X142.380 Y108.540 E0.02745
G1 X142.079 Y109.201 E0.02277
G1 X141.610 Y109.943 E0.02753
G1 X141.169 Y110.464 E0.02138
G1 X140.481 Y111.082 E0.02901
G1 X139.711 Y111.574 E0.02863
G1 X139.083 Y111.864 E0.02169
G1 X138.064 Y112.155 E0.03324
G1 X137.035 Y112.254 E0.03241
G1 X109.881 Y112.252 E0.85138
G1 X109.102 Y112.104 E0.02485
G1 X108.401 Y111.743 E0.02473
G1 X107.829 Y111.195 E0.02485
G1 X107.436 Y110.506 E0.02485
G1 X107.247 Y109.575 E0.02980
G1 X107.246 Y103.492 E0.19072
G1 X107.292 Y102.792 E0.02199
G1 X107.461 Y101.942 E0.02716
G1 X107.927 Y100.788 E0.03903
G1 X108.714 Y99.672 E0.04280
G1 X109.020 Y99.888 F10800.000
G1 F1200.000
G1 X110.014 Y99.030 E0.04116
G1 X111.103 Y98.469 E0.03843
G1 X112.021 Y98.213 E0.02988
G1 X112.973 Y98.123 E0.02998
G1 X140.004 Y98.123 E0.84754
G1 X140.767 Y98.250 E0.02426
G1 X141.449 Y98.615 E0.02426
G1 X141.977 Y99.180 E0.02426
G1 X142.297 Y99.889 E0.02437
G1 X142.377 Y100.480 E0.01870
G1 X142.356 Y106.966 E0.20336
G1 X142.253 Y107.638 E0.02133
G1 X142.015 Y108.441 E0.02624
G1 X141.642 Y109.212 E0.02686
G1 X141.274 Y109.762 E0.02076
G1 X140.219 Y110.807 E0.04656
G1 X139.508 Y111.256 E0.02636
G1 X138.897 Y111.531 E0.02101
G1 X137.979 Y111.787 E0.02987
G1 X137.027 Y111.877 E0.02999
G1 X109.909 Y111.875 E0.85028
G1 X109.226 Y111.748 E0.02178
G1 X108.612 Y111.430 E0.02166
G1 X108.116 Y110.950 E0.02166
G1 X107.777 Y110.343 E0.02178
G1 X107.624 Y109.554 E0.02520
G1 X107.623 Y103.489 E0.19019
G1 X107.823 Y102.048 E0.04560
G1 X108.257 Y100.971 E0.03642
G1 X108.985 Y99.937 E0.03964
G1 F8640.000
G1 X110.014 Y99.030 E-0.31658
G1 X111.103 Y98.469 E-0.28298
G1 X111.772 Y98.282 E-0.16044
G1 E-0.04000 F2100.00000
G1 Z0.800 F10800.000
G1 X144.641 Y99.509
G1 Z0.200
G1 E0.80000 F2100.00000
G1 F1200.000
G1 X144.713 Y106.558 E0.22103
G1 X144.677 Y107.245 E0.02155
G1 X144.582 Y107.916 E0.02125
G1 X144.419 Y108.608 E0.02230
G1 X144.172 Y109.337 E0.02412
G1 X143.877 Y109.994 E0.02260
G1 X143.528 Y110.608 E0.02215
G1 X143.132 Y111.179 E0.02176
G1 X142.680 Y111.719 E0.02209
G1 X142.165 Y112.229 E0.02275
G1 X141.635 Y112.665 E0.02151
G1 X141.047 Y113.067 E0.02233
G1 X140.400 Y113.423 E0.02316
G1 X139.757 Y113.704 E0.02198
G1 X139.109 Y113.919 E0.02142
G1 X138.453 Y114.075 E0.02112
G1 X137.767 Y114.175 E0.02174
G1 X137.055 Y114.213 E0.02238
G1 X109.490 Y114.213 E0.86427
G1 X108.232 Y113.905 E0.04061
G1 X107.218 Y113.334 E0.03649
G1 X106.289 Y112.449 E0.04024
G1 X105.633 Y111.361 E0.03981
G1 X105.287 Y109.956 E0.04539
G1 X105.288 Y103.401 E0.20552
G1 X105.338 Y102.618 E0.02462
G1 X105.435 Y101.992 E0.01984
G1 X105.588 Y101.367 E0.02018
G1 X105.858 Y100.586 E0.02590
G1 X106.093 Y100.066 E0.01792
G1 X106.371 Y99.556 E0.01821
G1 X106.826 Y98.876 E0.02563
G1 X107.347 Y98.252 E0.02548
G1 X107.768 Y97.832 E0.01866
G1 X108.223 Y97.444 E0.01875
G1 X108.853 Y96.996 E0.02423
G1 X109.544 Y96.605 E0.02491
G1 X110.209 Y96.310 E0.02279
G1 X110.875 Y96.085 E0.02204
G1 X111.563 Y95.922 E0.02217
G1 X112.249 Y95.823 E0.02174
G1 X112.936 Y95.787 E0.02154
G1 X140.486 Y95.790 E0.86383
G1 X141.513 Y95.999 E0.03286
G1 X142.436 Y96.423 E0.03186
G1 X143.552 Y97.379 E0.04605
G1 X144.235 Y98.353 E0.03729
G1 X144.621 Y99.453 E0.03655
G1 X144.264 Y99.546 F10800.000
G1 F1200.000
G1 X144.336 Y106.556 E0.21982
G1 X144.301 Y107.216 E0.02072
G1 X144.210 Y107.855 E0.02022
G1 X144.059 Y108.496 E0.02067
G1 X143.825 Y109.190 E0.02298
G1 X143.536 Y109.831 E0.02203
G1 X143.213 Y110.401 E0.02054
G1 X142.838 Y110.943 E0.02068
G1 X142.396 Y111.470 E0.02154
G1 X141.918 Y111.944 E0.02112
G1 X141.415 Y112.359 E0.02044
G1 X140.841 Y112.750 E0.02178
G1 X140.240 Y113.081 E0.02152
G1 X139.629 Y113.349 E0.02091
G1 X139.013 Y113.554 E0.02037
G1 X138.374 Y113.706 E0.02058
G1 X137.722 Y113.801 E0.02068
G1 X137.050 Y113.836 E0.02111
G1 X109.514 Y113.836 E0.86337
G1 X108.349 Y113.546 E0.03762
G1 X107.426 Y113.018 E0.03336
G1 X106.598 Y112.232 E0.03577
G1 X105.971 Y111.191 E0.03811
G1 X105.664 Y109.934 E0.04060
G1 X105.664 Y103.419 E0.20427
G1 X105.712 Y102.667 E0.02362
G1 X105.804 Y102.074 E0.01881
G1 X105.952 Y101.465 E0.01965
G1 X106.211 Y100.719 E0.02478
G1 X106.434 Y100.228 E0.01689
G1 X106.690 Y99.758 E0.01678
G1 X107.122 Y99.110 E0.02443
G1 X107.619 Y98.513 E0.02435
G1 X108.029 Y98.104 E0.01815
G1 X108.461 Y97.736 E0.01780
G1 X109.048 Y97.319 E0.02256
G1 X109.706 Y96.946 E0.02374
G1 X110.354 Y96.658 E0.02222
G1 X110.971 Y96.450 E0.02041
G1 X111.626 Y96.294 E0.02111
G1 X112.278 Y96.199 E0.02067
G1 X112.951 Y96.164 E0.02112
G1 X140.467 Y96.167 E0.86276
G1 X141.378 Y96.352 E0.02914
G1 X142.212 Y96.728 E0.02868
G1 X143.288 Y97.650 E0.04445
G1 X143.889 Y98.505 E0.03276
G1 X144.243 Y99.489 E0.03280
G1 X143.887 Y99.583 F10800.000
G1 F1200.000
G1 X143.959 Y106.554 E0.21857
G1 X143.924 Y107.187 E0.01988
G1 X143.838 Y107.793 E0.01919
G1 X143.699 Y108.384 E0.01905
G1 X143.477 Y109.044 E0.02183
G1 X143.196 Y109.668 E0.02145
G1 X142.889 Y110.207 E0.01944
G1 X142.543 Y110.708 E0.01909
G1 X142.113 Y111.221 E0.02099
G1 X141.671 Y111.659 E0.01951
G1 X141.195 Y112.052 E0.01936
G1 X140.636 Y112.434 E0.02122
G1 X140.081 Y112.739 E0.01988
G1 X139.501 Y112.994 E0.01985
G1 X138.918 Y113.189 E0.01930
G1 X138.296 Y113.337 E0.02004
G1 X137.677 Y113.426 E0.01960
G1 X137.045 Y113.459 E0.01985
G1 X109.538 Y113.459 E0.86247
G1 X108.469 Y113.187 E0.03458
G1 X107.635 Y112.704 E0.03022
G1 X106.878 Y111.978 E0.03287
G1 X106.309 Y111.023 E0.03485
G1 X106.041 Y109.911 E0.03587
G1 X106.041 Y103.436 E0.20303
G1 X106.086 Y102.715 E0.02264
G1 X106.172 Y102.155 E0.01779
G1 X106.311 Y101.580 E0.01855
G1 X106.558 Y100.866 E0.02368
G1 X106.768 Y100.402 E0.01597
G1 X107.017 Y99.946 E0.01629
G1 X107.430 Y99.328 E0.02330
G1 X107.903 Y98.762 E0.02313
G1 X108.290 Y98.377 E0.01710
G1 X108.699 Y98.029 E0.01685
G1 X109.258 Y97.633 E0.02148
G1 X109.884 Y97.278 E0.02255
G1 X110.498 Y97.006 E0.02107
G1 X111.082 Y96.811 E0.01932
G1 X111.704 Y96.663 E0.02004
G1 X112.323 Y96.574 E0.01960
G1 X112.955 Y96.541 E0.01986
G1 X140.449 Y96.544 E0.86202
G1 X141.246 Y96.705 E0.02550
G1 X141.988 Y97.033 E0.02545
G1 X143.025 Y97.921 E0.04282
G1 X143.544 Y98.660 E0.02831
G1 X143.866 Y99.527 E0.02900
G1 X143.512 Y99.656 F10800.000
G1 F1200.000
G1 X143.582 Y106.540 E0.21584
G1 X143.550 Y107.143 E0.01893
G1 X143.469 Y107.716 E0.01815
G1 X143.339 Y108.273 E0.01794
G1 X143.122 Y108.915 E0.02126
G1 X142.864 Y109.490 E0.01976
G1 X142.574 Y109.999 E0.01837
G1 X142.238 Y110.486 E0.01855
G1 X141.841 Y110.959 E0.01937
G1 X141.424 Y111.374 E0.01844
G1 X140.975 Y111.746 E0.01828
G1 X140.446 Y112.108 E0.02010
G1 X139.921 Y112.398 E0.01879
G1 X139.358 Y112.645 E0.01930
G1 X138.807 Y112.829 E0.01822
G1 X138.217 Y112.968 E0.01898
G1 X137.632 Y113.052 E0.01853
G1 X137.040 Y113.082 E0.01860
G1 X109.562 Y113.082 E0.86155
G1 X108.590 Y112.829 E0.03149
G1 X107.847 Y112.391 E0.02706
G1 X107.160 Y111.726 E0.02999
G1 X106.649 Y110.857 E0.03159
G1 X106.418 Y109.890 E0.03119
G1 X106.418 Y103.453 E0.20181
G1 X106.460 Y102.764 E0.02165
G1 X106.541 Y102.235 E0.01677
G1 X106.671 Y101.694 E0.01745
G1 X106.906 Y101.013 E0.02257
G1 X107.109 Y100.564 E0.01547
G1 X107.344 Y100.134 E0.01536
G1 X107.726 Y99.562 E0.02158
G1 X108.175 Y99.022 E0.02200
G1 X108.540 Y98.660 E0.01612
G1 X108.937 Y98.322 E0.01635
G1 X109.468 Y97.946 E0.02039
G1 X110.061 Y97.611 E0.02135
G1 X110.642 Y97.355 E0.01993
G1 X111.193 Y97.171 E0.01822
G1 X111.783 Y97.032 E0.01898
G1 X112.368 Y96.948 E0.01853
G1 X112.960 Y96.918 E0.01861
G1 X140.429 Y96.921 E0.86126
G1 X141.148 Y97.070 E0.02304
G1 X141.808 Y97.365 E0.02266
G1 X142.759 Y98.190 E0.03948
G1 X143.220 Y98.854 E0.02534
G1 X143.492 Y99.600 E0.02489
G1 X143.138 Y99.726 F10800.000
G1 F1200.000
G1 X143.156 Y99.778 E0.00171
G1 X143.205 Y106.536 E0.21192
G1 X143.174 Y107.114 E0.01813
G1 X143.097 Y107.654 E0.01710
G1 X142.974 Y108.177 E0.01687
G1 X142.768 Y108.786 E0.02013
G1 X142.531 Y109.312 E0.01809
G1 X142.259 Y109.792 E0.01732
G1 X141.943 Y110.251 E0.01747
G1 X141.569 Y110.698 E0.01829
G1 X141.176 Y111.089 E0.01738
G1 X140.754 Y111.440 E0.01721
G1 X140.256 Y111.782 E0.01896
G1 X139.747 Y112.063 E0.01823
G1 X139.215 Y112.296 E0.01821
G1 X138.696 Y112.468 E0.01713
G1 X138.139 Y112.599 E0.01793
G1 X137.604 Y112.675 E0.01695
G1 X137.035 Y112.705 E0.01787
G1 X109.587 Y112.705 E0.86060
G1 X108.714 Y112.472 E0.02833
G1 X108.061 Y112.080 E0.02390
G1 X107.442 Y111.475 E0.02713
G1 X106.989 Y110.693 E0.02833
G1 X106.795 Y109.868 E0.02658
G1 X106.795 Y103.459 E0.20096
G1 X106.834 Y102.812 E0.02032
G1 X106.909 Y102.315 E0.01576
G1 X107.030 Y101.808 E0.01635
G1 X107.253 Y101.160 E0.02146
G1 X107.444 Y100.738 E0.01452
G1 X107.671 Y100.322 E0.01486
G1 X108.034 Y99.780 E0.02046
G1 X108.448 Y99.283 E0.02026
G1 X108.800 Y98.932 E0.01561
G1 X109.174 Y98.615 E0.01537
G1 X109.677 Y98.260 E0.01930
G1 X110.237 Y97.945 E0.02015
G1 X110.785 Y97.704 E0.01878
G1 X111.304 Y97.532 E0.01713
G1 X111.861 Y97.401 E0.01793
G1 X112.396 Y97.325 E0.01695
G1 X112.965 Y97.295 E0.01788
G1 X140.410 Y97.298 E0.86050
G1 X141.013 Y97.423 E0.01932
G1 X141.628 Y97.697 E0.02110
G1 X142.492 Y98.457 E0.03607
G1 X142.895 Y99.046 E0.02237
G1 X143.117 Y99.670 E0.02078
G1 F8640.000
G1 X143.156 Y99.778 E-0.02647
G1 X143.179 Y102.954 E-0.73353
G1 E-0.04000 F2100.00000
G1 Z0.800 F10800.000
G1 X142.045 Y100.022
G1 Z0.200
G1 E0.80000 F2100.00000
G1 F1200.000
G1 X142.074 Y106.524 E0.20388
G1 X142.047 Y107.010 E0.01526
G1 X141.984 Y107.450 E0.01394
G1 X141.879 Y107.890 E0.01420
G1 X141.724 Y108.349 E0.01517
G1 X141.532 Y108.780 E0.01481
G1 X141.312 Y109.174 E0.01415
G1 X141.056 Y109.549 E0.01422
G1 X140.750 Y109.918 E0.01503
G1 X140.430 Y110.238 E0.01418
G1 X140.089 Y110.525 E0.01398
G1 X139.683 Y110.807 E0.01550
G1 X139.238 Y111.053 E0.01595
G1 X138.802 Y111.243 E0.01490
G1 X138.398 Y111.377 E0.01336
G1 X137.908 Y111.492 E0.01578
G1 X137.474 Y111.551 E0.01373
G1 X137.021 Y111.574 E0.01421
G1 X109.668 Y111.574 E0.85763
G1 X109.104 Y111.408 E0.01842
G1 X108.750 Y111.183 E0.01318
G1 X108.299 Y110.732 E0.01999
G1 X108.018 Y110.216 E0.01842
G1 X107.926 Y109.806 E0.01318
G1 X107.926 Y103.475 E0.19849
G1 X107.956 Y102.953 E0.01640
G1 X108.016 Y102.550 E0.01276
G1 X108.110 Y102.146 E0.01302
G1 X108.296 Y101.600 E0.01808
G1 X108.459 Y101.236 E0.01252
G1 X108.650 Y100.888 E0.01245
G1 X108.934 Y100.465 E0.01597
G1 X109.266 Y100.065 E0.01631
G1 X109.561 Y99.770 E0.01308
G1 X109.886 Y99.495 E0.01334
G1 X110.303 Y99.203 E0.01597
G1 X110.764 Y98.946 E0.01654
G1 X111.198 Y98.757 E0.01485
G1 X111.602 Y98.623 E0.01336
G1 X112.092 Y98.508 E0.01578
G1 X112.526 Y98.449 E0.01373
G1 X112.979 Y98.426 E0.01421
G1 X140.346 Y98.430 E0.85806
G1 X140.705 Y98.513 E0.01157
G1 X141.071 Y98.685 E0.01268
G1 X141.676 Y99.243 E0.02581
G1 X141.908 Y99.603 E0.01341
G1 X142.027 Y99.965 E0.01194
G1 X141.668 Y100.082 F10800.000
G1 F1200.000
G1 X141.687 Y100.140 E0.00191
G1 X141.697 Y106.519 E0.20001
G1 X141.673 Y106.965 E0.01398
G1 X141.612 Y107.387 E0.01339
G1 X141.515 Y107.794 E0.01311
G1 X141.376 Y108.204 E0.01357
G1 X141.199 Y108.604 E0.01372
G1 X140.995 Y108.969 E0.01310
G1 X140.759 Y109.316 E0.01314
G1 X140.476 Y109.659 E0.01395
G1 X140.181 Y109.955 E0.01312
G1 X139.866 Y110.221 E0.01291
G1 X139.491 Y110.482 E0.01432
G1 X139.063 Y110.719 E0.01536
G1 X138.675 Y110.888 E0.01328
G1 X138.303 Y111.012 E0.01230
G1 X137.847 Y111.120 E0.01469
G1 X137.446 Y111.175 E0.01267
G1 X137.016 Y111.197 E0.01350
G1 X109.698 Y111.197 E0.85655
G1 X109.242 Y111.056 E0.01496
G1 X109.002 Y110.902 E0.00892
G1 X108.586 Y110.486 E0.01845
G1 X108.364 Y110.064 E0.01496
G1 X108.303 Y109.786 E0.00892
G1 X108.303 Y103.480 E0.19771
G1 X108.331 Y103.000 E0.01510
G1 X108.388 Y102.614 E0.01224
G1 X108.475 Y102.241 E0.01199
G1 X108.643 Y101.746 E0.01640
G1 X108.794 Y101.411 E0.01152
G1 X108.977 Y101.077 E0.01194
G1 X109.242 Y100.683 E0.01487
G1 X109.539 Y100.325 E0.01461
G1 X109.822 Y100.042 E0.01255
G1 X110.122 Y99.789 E0.01230
G1 X110.510 Y99.518 E0.01485
G1 X110.938 Y99.281 E0.01534
G1 X111.325 Y99.112 E0.01324
G1 X111.697 Y98.988 E0.01230
G1 X112.153 Y98.880 E0.01469
G1 X112.554 Y98.825 E0.01267
G1 X112.984 Y98.803 E0.01350
G1 X140.324 Y98.807 E0.85723
G1 X140.562 Y98.862 E0.00767
G1 X140.882 Y99.013 E0.01109
G1 X141.401 Y99.501 E0.02233
G1 X141.557 Y99.743 E0.00904
G1 X141.650 Y100.025 E0.00930
G1 X141.207 Y99.885 F10800.000
G1 F1200.000
G1 X141.320 Y100.229 E0.01136
G1 X141.320 Y106.514 E0.19706
G1 X141.298 Y106.920 E0.01274
G1 X141.243 Y107.308 E0.01229
G1 X141.150 Y107.698 E0.01255
G1 X141.022 Y108.075 E0.01249
G1 X140.865 Y108.429 E0.01214
G1 X140.678 Y108.765 E0.01206
G1 X140.462 Y109.083 E0.01206
G1 X140.201 Y109.400 E0.01287
G1 X139.931 Y109.673 E0.01205
G1 X139.643 Y109.917 E0.01184
G1 X139.300 Y110.157 E0.01312
G1 X138.888 Y110.385 E0.01476
G1 X138.547 Y110.533 E0.01167
G1 X138.207 Y110.647 E0.01122
G1 X137.769 Y110.750 E0.01412
G1 X137.404 Y110.801 E0.01157
G1 X137.012 Y110.820 E0.01230
G1 X109.729 Y110.820 E0.85542
G1 X109.385 Y110.707 E0.01136
G1 X109.256 Y110.622 E0.00484
G1 X108.875 Y110.242 E0.01687
G1 X108.712 Y109.918 E0.01136
G1 X108.680 Y109.767 E0.00484
G1 X108.680 Y103.486 E0.19696
G1 X108.705 Y103.046 E0.01382
G1 X108.757 Y102.692 E0.01121
G1 X108.840 Y102.337 E0.01144
G1 X108.991 Y101.892 E0.01471
G1 X109.135 Y101.572 E0.01100
G1 X109.303 Y101.267 E0.01094
G1 X109.549 Y100.903 E0.01377
G1 X109.823 Y100.573 E0.01344
G1 X110.082 Y100.315 E0.01149
G1 X110.358 Y100.083 E0.01128
G1 X110.717 Y99.833 E0.01373
G1 X111.112 Y99.615 E0.01414
G1 X111.453 Y99.467 E0.01166
G1 X111.793 Y99.353 E0.01122
G1 X112.231 Y99.250 E0.01412
G1 X112.596 Y99.199 E0.01157
G1 X112.988 Y99.180 E0.01230
G1 X140.302 Y99.184 E0.85640
G1 X140.419 Y99.211 E0.00377
G1 X140.692 Y99.340 E0.00947
G1 X141.123 Y99.757 E0.01880
G1 X141.174 Y99.835 E0.00291
G1 X140.282 Y99.564 F10800.000
G1 F1200.000
G1 X140.500 Y99.667 E0.00757
G1 X140.843 Y100.010 E0.01522
G1 X140.943 Y100.264 E0.00856
G1 X140.943 Y106.509 E0.19580
G1 X140.922 Y106.891 E0.01200
G1 X140.871 Y107.246 E0.01123
G1 X140.790 Y107.585 E0.01094
G1 X140.674 Y107.930 E0.01141
G1 X140.524 Y108.268 E0.01158
G1 X140.353 Y108.573 E0.01097
G1 X140.156 Y108.863 E0.01101
G1 X139.917 Y109.153 E0.01177
G1 X139.670 Y109.401 E0.01098
G1 X139.407 Y109.622 E0.01078
