;FLAVOR:Marlin
M117 Time Left 0h27m35s
;Filament used: 4.60406m
;Layer height: 0.3
;MINX:17.824
;MINY:6.634
;MINZ:0.25
;MAXX:182.171
;MAXY:193.502
;MAXZ:4.75
;POSTPROCESSED
;Generated with Cura_SteamEngine 4.4.0
M140 S60
M105
M190 S60
M104 S220
M105
M109 S220
M82 ;absolute extrusion mode
G21 ;metric values
G90 ;absolute positioning
M82 ;set extruder to absolute mode
M107 ;start with the fan off
G28 X0 Y0 ;move X/Y to min endstops
G28 Z0 ;move Z to min endstops
G1 Z15.0 F9000 ;move the platform down 15mm
G92 E0 ;zero the extruded length
G1 F200 E10 ;extrude 10mm of feed stock
G92 E0 ;zero the extruded length again
G1 F9000
;Put printing message on LCD screen
M117 Printing...
G92 E0
G92 E0
G1 F3300 E-4
;LAYER_COUNT:16
;LAYER:0
M107
G0 F2400 X55.06 Y15.752 Z0.25
;TYPE:SKIRT
G1 F3300 E0
G1 F1800 X55.151 Y15.467 E0.01088
G1 X55.199 Y15.329 E0.0162
G1 X55.371 Y14.865 E0.0342
G1 X55.447 Y14.679 E0.04151
G1 X55.789 Y13.91 E0.07213
G1 X55.921 Y13.647 E0.08283
G1 X56.402 Y12.789 E0.11861
G1 X56.565 Y12.529 E0.12978
G1 X57.075 Y11.796 E0.16226
G1 X57.26 Y11.555 E0.17331
G1 X57.899 Y10.802 E0.20924
G1 X58.119 Y10.568 E0.22093
G1 X58.799 Y9.914 E0.25525
G1 X59.026 Y9.715 E0.26623
G1 X59.772 Y9.123 E0.30087
G1 X59.879 Y9.042 E0.30576
G1 X60.088 Y8.89 E0.31516
G1 X60.231 Y8.792 E0.32146
G1 X60.463 Y8.642 E0.33151
G1 X60.577 Y8.571 E0.3364
G1 X61.002 Y8.321 E0.35434
G1 X61.18 Y8.224 E0.36171
G1 X61.932 Y7.844 E0.39236
G1 X62.192 Y7.727 E0.40273
G1 X63.106 Y7.364 E0.43851
G1 X63.408 Y7.262 E0.45011
G1 X64.313 Y7.004 E0.48434
G1 X64.617 Y6.933 E0.4957
G1 X65.555 Y6.763 E0.53037
G1 X65.864 Y6.722 E0.54171
G1 X66.826 Y6.644 E0.57682
G1 X67.13 Y6.634 E0.58789
G1 X68.015 Y6.647 E0.62009
G1 X68.138 Y6.652 E0.62457
G1 X68.399 Y6.666 E0.63407
G1 X68.569 Y6.679 E0.64028
G1 X68.913 Y6.716 E0.65286
G1 X69.059 Y6.735 E0.65822
G1 X69.511 Y6.805 E0.67486
G1 X69.7 Y6.841 E0.68186
G1 X70.523 Y7.02 E0.7125
G1 X70.641 Y7.048 E0.71691
G1 X70.924 Y7.121 E0.72754
G1 X71.062 Y7.159 E0.73275
G1 X72.866 Y7.712 E0.80139
G1 X75.489 Y8.438 E0.9004
G1 X78.14 Y9.092 E0.99973
G1 X80.819 Y9.67 E1.09943
G1 X83.515 Y10.174 E1.1992
G1 X86.21 Y10.6 E1.29846
G1 X88.933 Y10.952 E1.39834
G1 X91.646 Y11.225 E1.49753
G1 X94.393 Y11.422 E1.59772
G1 X97.108 Y11.54 E1.69658
G1 X99.863 Y11.582 E1.79681
G1 X102.618 Y11.546 E1.89705
G1 X105.337 Y11.434 E1.99604
G1 X108.043 Y11.246 E2.09472
G1 X110.793 Y10.975 E2.19524
G1 X113.523 Y10.629 E2.29535
G1 X116.208 Y10.211 E2.3942
G1 X118.891 Y9.715 E2.49346
G1 X121.573 Y9.141 E2.59324
G1 X124.243 Y8.491 E2.6932
G1 X127.344 Y7.632 E2.81026
G1 X129.346 Y7.042 E2.88619
G1 X129.633 Y6.972 E2.89693
G1 X130.597 Y6.783 E2.93267
G1 X130.92 Y6.737 E2.94454
G1 X131.841 Y6.653 E2.97818
G1 X132.139 Y6.64 E2.98903
G1 X133.111 Y6.643 E3.02439
G1 X133.428 Y6.66 E3.03594
G1 X134.345 Y6.755 E3.06948
G1 X134.636 Y6.799 E3.08018
G1 X135.533 Y6.977 E3.11345
G1 X135.668 Y7.007 E3.11848
G1 X135.922 Y7.069 E3.12799
G1 X136.076 Y7.11 E3.13379
G1 X136.418 Y7.212 E3.14677
G1 X136.557 Y7.257 E3.15209
G1 X136.967 Y7.4 E3.16789
G1 X137.151 Y7.471 E3.17506
G1 X137.96 Y7.811 E3.20698
G1 X138.229 Y7.939 E3.21782
G1 X139.062 Y8.385 E3.25219
G1 X139.324 Y8.542 E3.2633
G1 X140.098 Y9.058 E3.29715
G1 X140.346 Y9.241 E3.30836
G1 X141.106 Y9.862 E3.34406
G1 X141.344 Y10.078 E3.35575
G1 X142.017 Y10.752 E3.3904
G1 X142.223 Y10.979 E3.40155
G1 X142.813 Y11.697 E3.43536
G1 X142.995 Y11.942 E3.44646
G1 X143.512 Y12.711 E3.48017
G1 X143.666 Y12.965 E3.49098
G1 X144.113 Y13.787 E3.52502
G1 X144.171 Y13.898 E3.52957
G1 X144.291 Y14.141 E3.53943
G1 X144.37 Y14.315 E3.54638
G1 X144.487 Y14.593 E3.55736
G1 X144.536 Y14.717 E3.56221
G1 X144.707 Y15.176 E3.58002
G1 X144.771 Y15.365 E3.58728
G1 X145.015 Y16.172 E3.61795
G1 X145.086 Y16.452 E3.62846
G1 X145.278 Y17.386 E3.66315
G1 X145.326 Y17.699 E3.67467
G1 X145.449 Y18.889 E3.71819
G1 X145.764 Y21.672 E3.82008
G1 X146.14 Y24.321 E3.91741
G1 X146.613 Y27.088 E4.01953
G1 X147.142 Y29.73 E4.11755
G1 X147.756 Y32.401 E4.21725
G1 X148.452 Y35.079 E4.3179
G1 X149.21 Y37.691 E4.41684
G1 X150.053 Y40.317 E4.51718
G1 X150.956 Y42.879 E4.616
G1 X151.941 Y45.434 E4.71561
G1 X152.994 Y47.959 E4.81513
G1 X154.126 Y50.469 E4.9153
G1 X155.325 Y52.937 E5.01512
G1 X156.583 Y55.348 E5.11405
G1 X157.593 Y57.177 E5.19005
G1 X157.954 Y57.815 E5.21672
G1 X157.973 Y57.848 E5.2181
G1 X158.617 Y59.017 E5.26666
G1 X158.636 Y59.051 E5.26807
G1 X159.793 Y61.214 E5.35731
G1 X159.811 Y61.25 E5.35877
G1 X160.414 Y62.412 E5.4064
G1 X160.431 Y62.445 E5.40775
G1 X161.539 Y64.644 E5.49732
G1 X161.556 Y64.677 E5.49868
G1 X162.123 Y65.835 E5.54558
G1 X162.14 Y65.872 E5.54706
G1 X163.209 Y68.129 E5.63791
G1 X163.226 Y68.164 E5.63933
G1 X163.769 Y69.348 E5.68671
G1 X163.785 Y69.383 E5.68811
G1 X164.816 Y71.704 E5.7805
G1 X164.831 Y71.74 E5.78192
G1 X165.285 Y72.797 E5.82377
G1 X165.3 Y72.833 E5.82519
G1 X166.291 Y75.22 E5.91921
G1 X166.307 Y75.257 E5.92068
G1 X166.778 Y76.434 E5.96679
G1 X166.791 Y76.469 E5.96815
G1 X167.697 Y78.813 E6.05957
G1 X167.711 Y78.848 E6.06094
G1 X168.143 Y80.006 E6.1059
G1 X168.156 Y80.042 E6.1073
G1 X169.013 Y82.426 E6.19946
G1 X169.027 Y82.465 E6.20096
G1 X169.427 Y83.625 E6.2456
G1 X169.439 Y83.66 E6.24695
G1 X170.245 Y86.09 E6.34008
G1 X170.257 Y86.128 E6.34153
G1 X170.633 Y87.311 E6.38669
G1 X170.644 Y87.347 E6.38806
G1 X171.376 Y89.748 E6.47937
G1 X171.387 Y89.785 E6.48077
G1 X171.748 Y91.022 E6.52765
G1 X171.759 Y91.06 E6.52909
G1 X172.42 Y93.436 E6.61881
G1 X172.43 Y93.472 E6.62017
G1 X172.764 Y94.73 E6.66752
G1 X172.773 Y94.767 E6.6689
G1 X173.376 Y97.154 E6.75846
G1 X173.386 Y97.193 E6.75993
G1 X173.684 Y98.438 E6.8065
G1 X173.693 Y98.476 E6.80792
G1 X174.273 Y101.04 E6.90355
G1 X174.281 Y101.078 E6.90496
G1 X174.519 Y102.193 E6.94644
G1 X174.527 Y102.231 E6.94785
G1 X175.126 Y105.214 E7.05853
G1 X175.712 Y107.934 E7.15975
G1 X176.36 Y110.574 E7.25864
G1 X177.096 Y113.244 E7.3594
G1 X177.898 Y115.864 E7.45907
G1 X178.769 Y118.446 E7.5582
G1 X179.714 Y121.005 E7.65744
G1 X180.738 Y123.552 E7.7573
G1 X181.846 Y126.116 E7.85891
G1 X182.008 Y126.592 E7.8772
G1 X182.104 Y127.253 E7.9015
G1 X182.142 Y128.238 E7.93736
G1 X182.144 Y128.308 E7.93991
G1 X182.17 Y129.897 E7.99772
G1 X182.17 Y129.944 E7.99943
G1 X182.171 Y130.64 E8.02475
G1 X182.132 Y131.142 E8.04307
G1 X181.994 Y131.691 E8.06366
G1 X181.528 Y133.027 E8.11513
G1 X180.785 Y135.209 E8.19899
G1 X179.984 Y137.791 E8.29733
G1 X179.247 Y140.431 E8.39704
G1 X178.578 Y143.116 E8.4977
G1 X177.991 Y145.798 E8.59758
G1 X177.489 Y148.443 E8.69552
G1 X177.049 Y151.18 E8.79636
G1 X176.585 Y154.723 E8.92635
G1 X176.57 Y154.825 E8.9301
G1 X176.464 Y155.471 E8.95392
G1 X176.447 Y155.566 E8.95743
G1 X176.388 Y155.868 E8.96862
G1 X176.355 Y156.019 E8.97424
G1 X176.284 Y156.307 E8.98504
G1 X176.239 Y156.469 E8.99115
G1 X176.056 Y157.072 E9.01408
G1 X175.983 Y157.284 E9.02223
G1 X175.856 Y157.616 E9.03516
G1 X175.813 Y157.723 E9.03936
G1 X175.601 Y158.222 E9.05908
G1 X175.529 Y158.38 E9.0654
G1 X175.398 Y158.647 E9.07622
G1 X175.331 Y158.777 E9.08154
G1 X175.047 Y159.294 E9.103
G1 X174.956 Y159.448 E9.1095
G1 X174.831 Y159.648 E9.11808
G1 X174.753 Y159.767 E9.12326
G1 X174.367 Y160.327 E9.148
G1 X174.254 Y160.481 E9.15495
G1 X174.082 Y160.701 E9.16511
G1 X173.991 Y160.813 E9.17036
G1 X173.586 Y161.285 E9.19298
G1 X173.469 Y161.414 E9.19932
G1 X173.309 Y161.581 E9.20773
G1 X173.203 Y161.685 E9.21313
G1 X172.133 Y162.702 E9.26684
G1 X172.101 Y162.733 E9.26846
G1 X171.181 Y163.583 E9.31402
G1 X169.244 Y165.477 E9.41258
G1 X167.324 Y167.465 E9.51312
G1 X165.472 Y169.494 E9.61305
G1 X163.69 Y171.56 E9.71231
G1 X161.945 Y173.703 E9.81284
G1 X160.312 Y175.831 E9.91042
G1 X158.661 Y178.11 E10.0128
G1 X156.897 Y180.686 E10.12637
G1 X156.788 Y180.836 E10.13312
G1 X156.63 Y181.04 E10.1425
G1 X156.547 Y181.142 E10.14729
G1 X156.128 Y181.639 E10.17094
G1 X155.997 Y181.786 E10.1781
G1 X155.805 Y181.987 E10.18821
G1 X155.71 Y182.082 E10.1931
G1 X155.29 Y182.486 E10.2143
G1 X155.158 Y182.606 E10.22079
G1 X154.973 Y182.765 E10.22966
G1 X154.865 Y182.854 E10.23475
G1 X154.344 Y183.263 E10.25885
G1 X154.19 Y183.377 E10.26582
G1 X153.953 Y183.541 E10.2763
G1 X153.833 Y183.62 E10.28153
G1 X153.326 Y183.938 E10.3033
G1 X153.179 Y184.024 E10.3095
G1 X152.923 Y184.166 E10.32015
G1 X152.79 Y184.236 E10.32561
G1 X152.244 Y184.506 E10.34777
G1 X152.122 Y184.563 E10.35267
G1 X149.424 Y185.757 E10.46
G1 X146.928 Y186.952 E10.56067
G1 X144.502 Y188.197 E10.65987
G1 X142.11 Y189.511 E10.75915
G1 X139.738 Y190.905 E10.85924
G1 X138.381 Y191.762 E10.91762
G1 X138.355 Y191.778 E10.91873
G1 X137.175 Y192.508 E10.96921
G1 X136.727 Y192.738 E10.98753
G1 X136.14 Y192.919 E11.00988
G1 X135.807 Y192.987 E11.02224
G1 X135.677 Y193.011 E11.02705
G1 X133.462 Y193.368 E11.10867
G1 X133.414 Y193.375 E11.11043
G1 X132.782 Y193.467 E11.13366
G1 X132.28 Y193.5 E11.15197
G1 X131.853 Y193.465 E11.16755
G1 X131.307 Y193.383 E11.18764
G1 X131.301 Y193.382 E11.18786
G1 X128.544 Y192.962 E11.28931
G1 X125.84 Y192.628 E11.38842
G1 X123.093 Y192.366 E11.48881
G1 X120.384 Y192.187 E11.58757
G1 X117.63 Y192.081 E11.68783
G1 X114.876 Y192.054 E11.78802
G1 X112.185 Y192.104 E11.88593
G1 X109.693 Y192.217 E11.97668
G1 X108.863 Y192.265 E12.00693
G1 X108.828 Y192.267 E12.0082
G1 X107.652 Y192.322 E12.05103
G1 X107.614 Y192.323 E12.05241
G1 X104.692 Y192.424 E12.15877
G1 X104.654 Y192.425 E12.16016
G1 X103.546 Y192.45 E12.20047
G1 X103.511 Y192.451 E12.20175
G1 X100.604 Y192.485 E12.30751
G1 X100.57 Y192.485 E12.30874
G1 X99.435 Y192.486 E12.35003
G1 X99.395 Y192.486 E12.35149
G1 X96.456 Y192.452 E12.45841
G1 X96.42 Y192.451 E12.45972
G1 X95.286 Y192.425 E12.50098
G1 X95.249 Y192.424 E12.50233
G1 X92.355 Y192.324 E12.60767
G1 X92.316 Y192.322 E12.60909
G1 X91.169 Y192.268 E12.65086
G1 X91.135 Y192.267 E12.6521
G1 X90.274 Y192.217 E12.68348
G1 X87.54 Y192.096 E12.78303
G1 X84.788 Y192.054 E12.88316
G1 X82.032 Y192.089 E12.98342
G1 X79.318 Y192.199 E13.08224
G1 X76.602 Y192.388 E13.18128
G1 X73.863 Y192.655 E13.28139
G1 X71.14 Y193 E13.38124
G1 X68.167 Y193.464 E13.4907
G1 X67.665 Y193.502 E13.50902
G1 X67.221 Y193.469 E13.52521
G1 X66.422 Y193.353 E13.55458
G1 X66.372 Y193.345 E13.55643
G1 X64.667 Y193.07 E13.61925
G1 X64.626 Y193.063 E13.62077
G1 X63.929 Y192.941 E13.64651
G1 X63.441 Y192.816 E13.66483
G1 X62.769 Y192.491 E13.69199
G1 X62.4 Y192.256 E13.7079
G1 X60.038 Y190.788 E13.80907
G1 X57.645 Y189.395 E13.9098
G1 X55.273 Y188.099 E14.00813
G1 X52.815 Y186.847 E14.10848
G1 X50.35 Y185.677 E14.20774
G1 X48.759 Y184.968 E14.2711
G1 X47.864 Y184.578 E14.30662
G1 X47.736 Y184.519 E14.31175
G1 X47.166 Y184.24 E14.33483
G1 X46.997 Y184.151 E14.34178
G1 X46.794 Y184.036 E14.35027
G1 X46.682 Y183.969 E14.35502
G1 X46.132 Y183.627 E14.37858
G1 X45.977 Y183.524 E14.38535
G1 X45.752 Y183.365 E14.39537
G1 X45.638 Y183.281 E14.40052
G1 X45.17 Y182.918 E14.42207
G1 X45.038 Y182.81 E14.42827
G1 X44.852 Y182.649 E14.43722
G1 X44.74 Y182.547 E14.44273
G1 X44.258 Y182.088 E14.46694
G1 X44.133 Y181.962 E14.4734
G1 X43.95 Y181.767 E14.48313
G1 X43.848 Y181.653 E14.48869
G1 X43.468 Y181.207 E14.51001
G1 X43.362 Y181.075 E14.51617
G1 X43.168 Y180.821 E14.52779
G1 X43.077 Y180.696 E14.53342
G1 X42.014 Y179.154 E14.60155
G1 X41.99 Y179.118 E14.60312
G1 X41.72 Y178.714 E14.6208
G1 X40.112 Y176.454 E14.7217
G1 X38.476 Y174.289 E14.82042
G1 X36.752 Y172.135 E14.92079
G1 X34.977 Y170.043 E15.02059
G1 X33.171 Y168.03 E15.11897
G1 X31.262 Y166.021 E15.21979
G1 X29.328 Y164.099 E15.31898
G1 X26.793 Y161.712 E15.44565
G1 X26.674 Y161.594 E15.45174
G1 X26.478 Y161.389 E15.46206
G1 X26.364 Y161.263 E15.46824
G1 X25.988 Y160.825 E15.48924
G1 X25.876 Y160.687 E15.49571
G1 X25.67 Y160.418 E15.50803
G1 X25.586 Y160.304 E15.51318
G1 X25.25 Y159.822 E15.53456
G1 X25.145 Y159.66 E15.54158
G1 X25.029 Y159.47 E15.54968
G1 X24.963 Y159.356 E15.55447
G1 X24.654 Y158.799 E15.57764
G1 X24.576 Y158.65 E15.58376
G1 X24.442 Y158.375 E15.59489
G1 X24.377 Y158.233 E15.60057
G1 X24.133 Y157.663 E15.62313
G1 X24.061 Y157.479 E15.63032
G1 X23.983 Y157.26 E15.63877
G1 X23.942 Y157.137 E15.64349
G1 X23.746 Y156.506 E15.66753
G1 X23.693 Y156.313 E15.67481
G1 X23.625 Y156.033 E15.68529
G1 X23.598 Y155.912 E15.6898
G1 X23.478 Y155.317 E15.71188
G1 X23.445 Y155.125 E15.71897
G1 X23.316 Y154.195 E15.75312
G1 X23.31 Y154.15 E15.75477
G1 X23.194 Y153.216 E15.78901
G1 X22.898 Y151.017 E15.86973
G1 X22.466 Y148.314 E15.96931
G1 X21.956 Y145.625 E16.06887
G1 X21.379 Y142.992 E16.16693
G1 X20.709 Y140.297 E16.26795
G1 X19.98 Y137.681 E16.36674
G1 X19.163 Y135.047 E16.46707
G1 X18.004 Y131.692 E16.5962
G1 X17.878 Y131.204 E16.61453
G1 X17.831 Y130.713 E16.63247
G1 X17.825 Y130.387 E16.64433
G1 X17.824 Y130.276 E16.64837
G1 X17.861 Y128.051 E16.72933
G1 X17.862 Y128.009 E16.73085
G1 X17.883 Y127.309 E16.75633
G1 X17.938 Y126.808 E16.77467
G1 X18.132 Y126.169 E16.79896
G1 X18.273 Y125.835 E16.81215
G1 X18.289 Y125.798 E16.81361
G1 X19.116 Y123.905 E16.88876
G1 X20.156 Y121.333 E16.98969
G1 X21.107 Y118.775 E17.08897
G1 X21.98 Y116.205 E17.1877
G1 X22.794 Y113.567 E17.28814
G1 X23.524 Y110.94 E17.38732
G1 X24.189 Y108.254 E17.48798
G1 X24.804 Y105.32 E17.59704
G1 X25.45 Y102.194 E17.71316
G1 X25.454 Y102.174 E17.7139
G1 X25.696 Y101.041 E17.75605
G1 X25.704 Y101.003 E17.75746
G1 X26.27 Y98.502 E17.85074
G1 X26.279 Y98.464 E17.85216
G1 X26.575 Y97.228 E17.8984
G1 X26.585 Y97.189 E17.89986
G1 X27.195 Y94.775 E17.99044
G1 X27.203 Y94.742 E17.99168
G1 X27.534 Y93.489 E18.03882
G1 X27.545 Y93.448 E18.04037
G1 X28.213 Y91.049 E18.13096
G1 X28.224 Y91.012 E18.13236
G1 X28.584 Y89.778 E18.17912
G1 X28.595 Y89.741 E18.18053
G1 X29.325 Y87.347 E18.27158
G1 X29.335 Y87.313 E18.27287
G1 X29.705 Y86.146 E18.3174
G1 X29.719 Y86.106 E18.31894
G1 X30.545 Y83.617 E18.41434
G1 X30.557 Y83.58 E18.41576
G1 X30.921 Y82.527 E18.45629
G1 X30.933 Y82.492 E18.45764
G1 X31.823 Y80.011 E18.55352
G1 X31.837 Y79.973 E18.555
G1 X32.253 Y78.858 E18.59829
G1 X32.267 Y78.822 E18.59969
G1 X33.172 Y76.484 E18.6909
G1 X33.186 Y76.449 E18.69227
G1 X33.668 Y75.246 E18.73941
G1 X33.682 Y75.21 E18.74082
G1 X34.668 Y72.834 E18.8344
G1 X34.684 Y72.798 E18.83583
G1 X35.138 Y71.741 E18.87768
G1 X35.153 Y71.705 E18.8791
G1 X36.184 Y69.384 E18.97149
G1 X36.2 Y69.349 E18.97289
G1 X36.743 Y68.166 E19.02024
G1 X36.759 Y68.131 E19.02164
G1 X37.828 Y65.873 E19.11252
G1 X37.846 Y65.837 E19.11399
G1 X38.413 Y64.678 E19.16092
G1 X38.43 Y64.644 E19.16231
G1 X39.538 Y62.446 E19.25185
G1 X39.555 Y62.413 E19.2532
G1 X40.158 Y61.251 E19.30083
G1 X40.177 Y61.215 E19.30231
G1 X41.359 Y59.006 E19.39345
G1 X41.376 Y58.973 E19.3948
G1 X41.983 Y57.87 E19.4406
G1 X42.003 Y57.835 E19.44206
G1 X42.351 Y57.221 E19.46774
G1 X43.661 Y54.835 E19.56676
G1 X44.926 Y52.365 E19.66771
G1 X46.093 Y49.922 E19.7662
G1 X47.207 Y47.405 E19.86634
G1 X48.245 Y44.871 E19.96595
G1 X49.215 Y42.299 E20.06595
G1 X50.098 Y39.743 E20.16432
G1 X50.923 Y37.11 E20.2647
G1 X51.673 Y34.464 E20.36475
G1 X52.348 Y31.79 E20.46508
G1 X52.934 Y29.15 E20.56345
G1 X53.456 Y26.455 E20.66331
G1 X53.898 Y23.753 E20.76291
G1 X54.262 Y21.059 E20.86181
G1 X54.477 Y19.006 E20.9369
G1 X54.485 Y18.94 E20.93932
G1 X54.67 Y17.468 E20.99329
G1 X54.72 Y17.18 E21.00392
G1 X54.908 Y16.328 E21.03566
G1 X54.937 Y16.208 E21.04015
G1 X55.014 Y15.914 E21.05121
G1 X55.06 Y15.752 E21.05734
G1 F3300 E17.05734
;MESH:Visor_frame_EUROPE_ISO838_v3.stl
G0 F2400 X57.789 Y23.489
G0 X58.222 Y24.407
G0 X58.743 Y25.278
G0 X59.348 Y26.095
G0 X60.048 Y26.866
G0 X60.826 Y27.353
G0 X66.027 Y28.953
G0 X66.904 Y29.785
G0 X52.262 Y52.482
G0 X50.249 Y55.699
G0 X48.318 Y58.966
G0 X46.469 Y62.28
G0 X44.704 Y65.639
G0 X43.023 Y69.042
G0 X41.426 Y72.485
G0 X39.918 Y75.968
G0 X38.497 Y79.486
G0 X37.164 Y83.04
G0 X35.921 Y86.625
G0 X34.766 Y90.241
G0 X33.703 Y93.883
G0 X32.732 Y97.553
G0 X31.852 Y101.245
G0 X31.065 Y104.957
G0 X30.371 Y108.687
G0 X29.769 Y112.435
G0 X29.262 Y116.197
G0 X28.85 Y119.969
G0 X28.532 Y123.751
G0 X28.308 Y127.54
G0 X28.18 Y131.332
G0 X28.145 Y135.126
G0 X28.206 Y138.921
G0 X28.362 Y142.712
G0 X28.613 Y146.499
