; generated by PrusaSlicer 2.2.0+win64 on 2020-04-06 at 12:26:04 UTC

; 

; external perimeters extrusion width = 0.60mm
; perimeters extrusion width = 0.50mm
; infill extrusion width = 0.50mm
; solid infill extrusion width = 0.50mm
; top infill extrusion width = 0.45mm
; first layer extrusion width = 0.42mm

M73 P0 R49
M73 Q0 S49
M201 X1000 Y1000 Z1000 E5000 ; sets maximum accelerations, mm/sec^2
M203 X200 Y200 Z12 E120 ; sets maximum feedrates, mm/sec
M204 P1250 R1250 T1250 ; sets acceleration (P, T) and retract acceleration (R), mm/sec^2
M205 X8.00 Y8.00 Z0.40 E4.50 ; sets the jerk limits, mm/sec
M205 S0 T0 ; sets the minimum extruding and travel feed rate, mm/sec
M107
M862.3 P "MK3S" ; printer model check
M862.1 P0.4 ; nozzle diameter check
M115 U3.8.1 ; tell printer latest fw version
G90 ; use absolute coordinates
M83 ; extruder relative mode
M104 S215 ; set extruder temp
M140 S60 ; set bed temp
M190 S60 ; wait for bed temp
M109 S215 ; wait for extruder temp
G28 W ; home all without mesh bed level
G80 ; mesh bed leveling
G1 Y-3.0 F1000.0 ; go outside print area
G92 E0.0
G1 X60.0 E9.0 F1000.0 ; intro line
M73 Q0 S49
M73 P0 R49
G1 X100.0 E12.5 F1000.0 ; intro line
G92 E0.0
M221 S95
G21 ; set units to millimeters
G90 ; use absolute coordinates
M83 ; use relative distances for extrusion
M900 K30 ; Filament gcode
;BEFORE_LAYER_CHANGE
G92 E0.0
;0.2


G1 E-0.80000 F2100.00000
G1 Z0.600 F10800.000
;AFTER_LAYER_CHANGE
;0.2
G1 X102.502 Y70.908
G1 Z0.200
G1 E0.80000 F2100.00000
M204 S1000
G1 F1200.000
G1 X102.819 Y70.359 E0.01989
G1 X103.186 Y69.979 E0.01657
G1 X103.632 Y69.687 E0.01669
G1 X104.131 Y69.502 E0.01668
G1 X104.658 Y69.433 E0.01669
G1 X155.950 Y69.433 E1.60823
G1 X156.746 Y69.571 E0.02532
G1 X157.449 Y69.968 E0.02532
G1 X164.830 Y76.682 E0.31286
G1 X165.356 Y77.377 E0.02731
G1 X165.596 Y78.214 E0.02731
G1 X165.604 Y114.756 E1.14574
G1 X163.933 Y134.166 E0.61083
G1 X163.773 Y134.928 E0.02441
G1 X163.388 Y136.037 E0.03680
G1 X163.059 Y136.697 E0.02314
G1 X162.419 Y137.663 E0.03632
G1 X161.935 Y138.223 E0.02322
G1 X161.119 Y138.963 E0.03453
G1 X159.901 Y139.743 E0.04537
G1 X158.887 Y140.172 E0.03453
G1 X158.192 Y140.373 E0.02267
G1 X157.479 Y140.505 E0.02274
G1 X156.391 Y140.575 E0.03417
G1 X107.022 Y140.575 E1.54795
G1 X105.782 Y140.443 E0.03909
G1 X104.571 Y140.106 E0.03941
G1 X103.422 Y139.567 E0.03978
G1 X102.432 Y138.886 E0.03769
G1 X101.407 Y137.879 E0.04505
G1 X100.760 Y136.987 E0.03454
G1 X100.417 Y136.372 E0.02210
G1 X99.920 Y135.088 E0.04316
G1 X99.634 Y133.352 E0.05518
G1 X99.630 Y96.555 E1.15373
G1 X102.342 Y71.522 E0.78950
G1 X102.487 Y70.966 E0.01800
G1 F8640.000
G1 X102.819 Y70.359 E-0.15984
G1 X103.186 Y69.979 E-0.12200
G1 X103.632 Y69.687 E-0.12287
G1 X104.131 Y69.502 E-0.12287
G1 X104.658 Y69.433 E-0.12287
G1 X105.133 Y69.433 E-0.10954
G1 E-0.04000 F2100.00000
G1 Z0.800 F10800.000
G1 X110.652 Y69.245
G1 Z0.200
G1 E0.80000 F2100.00000
G1 F1200.000
G1 X110.373 Y68.825 E0.01580
G1 X109.199 Y67.774 E0.04941
G1 X108.141 Y67.285 E0.03655
G1 X107.228 Y67.104 E0.02918
G1 X104.158 Y67.108 E0.09627
G1 X103.052 Y67.359 E0.03556
G1 X101.968 Y67.936 E0.03849
G1 X101.015 Y68.826 E0.04089
G1 X100.210 Y70.280 E0.05209
G1 X99.988 Y71.397 E0.03573
G1 X99.983 Y90.032 E0.58430
G1 X99.694 Y90.336 E0.01313
G1 X99.172 Y90.996 E0.02638
G1 X98.742 Y91.643 E0.02438
G1 X98.341 Y92.366 E0.02591
G1 X97.986 Y93.157 E0.02719
G1 X97.720 Y93.918 E0.02527
G1 X97.518 Y94.691 E0.02506
G1 X97.362 Y95.600 E0.02892
G1 X97.299 Y96.355 E0.02374
G1 X97.293 Y97.110 E0.02369
G1 X97.358 Y97.979 E0.02730
G1 X97.503 Y98.861 E0.02804
G1 X97.713 Y99.680 E0.02649
G1 X97.996 Y100.489 E0.02688
G1 X98.333 Y101.239 E0.02577
G1 X98.712 Y101.928 E0.02468
G1 X99.145 Y102.586 E0.02471
G1 X99.442 Y102.966 E0.01512
G1 X99.820 Y103.414 F10800.000
G1 F1200.000
G1 X100.260 Y103.887 E0.02026
G1 X100.888 Y104.452 E0.02649
G1 X101.307 Y104.770 E0.01649
G1 X100.764 Y105.357 E0.02506
G1 X100.177 Y106.559 E0.04194
G1 X99.993 Y107.531 E0.03100
G1 X99.984 Y126.222 E0.58607
G1 X99.821 Y126.392 E0.00737
G1 X99.444 Y126.841 F10800.000
G1 F1200.000
G1 X99.183 Y127.171 E0.01318
G1 X98.734 Y127.845 E0.02541
G1 X98.325 Y128.586 E0.02654
G1 X97.980 Y129.363 E0.02666
G1 X97.724 Y130.093 E0.02424
G1 X97.529 Y130.831 E0.02395
G1 X97.367 Y131.757 E0.02946
G1 X97.299 Y132.547 E0.02486
G1 X97.294 Y133.334 E0.02467
G1 X97.358 Y134.169 E0.02628
G1 X97.493 Y135.003 E0.02649
G1 X97.714 Y135.871 E0.02808
G1 X98.010 Y136.712 E0.02794
G1 X98.348 Y137.460 E0.02574
G1 X98.737 Y138.158 E0.02506
G1 X99.164 Y138.803 E0.02425
G1 X99.685 Y139.463 E0.02638
G1 X100.261 Y140.078 E0.02639
G1 X100.903 Y140.655 E0.02709
G1 X101.630 Y141.199 E0.02847
G1 X102.290 Y141.611 E0.02438
G1 X102.970 Y141.965 E0.02405
G1 X103.722 Y142.283 E0.02559
G1 X104.502 Y142.538 E0.02573
G1 X105.356 Y142.740 E0.02754
G1 X106.243 Y142.867 E0.02809
G1 X107.095 Y142.913 E0.02675
G1 X107.911 Y142.888 E0.02559
G1 X108.733 Y142.794 E0.02595
G1 X109.515 Y142.640 E0.02499
G1 X110.280 Y142.423 E0.02491
G1 X111.069 Y142.128 E0.02641
G1 X111.802 Y141.782 E0.02542
G1 X112.505 Y141.376 E0.02545
G1 X113.193 Y140.898 E0.02629
G1 X113.355 Y140.763 E0.00658
G1 X113.808 Y140.386 F10800.000
G1 F1200.000
G1 X114.498 Y139.711 E0.03028
G1 X115.047 Y139.060 E0.02668
G1 X115.395 Y138.563 E0.01904
G1 X116.078 Y139.438 E0.03482
G1 X116.674 Y140.076 E0.02736
G1 X117.018 Y140.386 E0.01455
G1 X117.463 Y140.763 F10800.000
G1 F1200.000
G1 X117.987 Y141.160 E0.02060
G1 X118.675 Y141.594 E0.02550
G1 X119.384 Y141.964 E0.02507
G1 X120.108 Y142.272 E0.02469
G1 X120.903 Y142.535 E0.02624
G1 X121.790 Y142.743 E0.02856
G1 X122.642 Y142.865 E0.02698
G1 X123.477 Y142.912 E0.02624
G1 X124.293 Y142.890 E0.02559
G1 X125.101 Y142.802 E0.02548
G1 X125.929 Y142.640 E0.02646
G1 X126.708 Y142.419 E0.02539
G1 X127.467 Y142.135 E0.02540
G1 X128.186 Y141.797 E0.02490
G1 X128.890 Y141.394 E0.02543
G1 X129.594 Y140.908 E0.02684
G1 X129.768 Y140.764 E0.00708
G1 X130.221 Y140.387 F10800.000
G1 F1200.000
G1 X130.914 Y139.710 E0.03038
G1 X131.463 Y139.059 E0.02670
G1 X131.810 Y138.562 E0.01900
G1 X132.506 Y139.452 E0.03541
G1 X133.090 Y140.077 E0.02684
G1 X133.434 Y140.387 E0.01450
G1 X133.877 Y140.764 F10800.000
G1 F1200.000
G1 X134.416 Y141.169 E0.02114
G1 X135.104 Y141.602 E0.02548
G1 X135.799 Y141.964 E0.02458
G1 X136.524 Y142.272 E0.02468
G1 X137.334 Y142.539 E0.02677
G1 X138.188 Y142.740 E0.02751
G1 X139.074 Y142.867 E0.02806
G1 X139.926 Y142.913 E0.02675
G1 X140.740 Y142.888 E0.02554
G1 X141.531 Y142.799 E0.02493
G1 X142.328 Y142.644 E0.02546
G1 X143.122 Y142.419 E0.02589
G1 X143.896 Y142.129 E0.02591
G1 X144.616 Y141.790 E0.02494
G1 X145.320 Y141.385 E0.02547
G1 X146.024 Y140.897 E0.02685
G1 X146.184 Y140.764 E0.00654
G1 X146.637 Y140.387 F10800.000
G1 F1200.000
G1 X147.318 Y139.722 E0.02984
G1 X147.888 Y139.046 E0.02772
G1 X148.225 Y138.562 E0.01850
G1 X148.909 Y139.439 E0.03486
G1 X149.492 Y140.065 E0.02681
G1 X149.849 Y140.387 E0.01509
G1 X150.294 Y140.764 F10800.000
G1 F1200.000
G1 X150.845 Y141.179 E0.02164
G1 X151.534 Y141.610 E0.02547
G1 X152.229 Y141.971 E0.02456
G1 X152.967 Y142.282 E0.02510
G1 X153.731 Y142.534 E0.02523
G1 X154.619 Y142.743 E0.02860
G1 X155.490 Y142.867 E0.02758
G1 X156.326 Y142.913 E0.02625
G1 X157.157 Y142.888 E0.02607
G1 X157.979 Y142.794 E0.02593
G1 X158.775 Y142.636 E0.02545
G1 X159.553 Y142.414 E0.02538
G1 X160.298 Y142.135 E0.02495
G1 X161.018 Y141.797 E0.02493
G1 X161.748 Y141.377 E0.02641
G1 X162.411 Y140.918 E0.02529
G1 X163.147 Y140.306 E0.03002
G1 X163.757 Y139.696 E0.02702
G1 X164.313 Y139.033 E0.02715
G1 X164.781 Y138.368 E0.02547
G1 X165.192 Y137.667 E0.02549
G1 X165.546 Y136.933 E0.02555
G1 X165.844 Y136.156 E0.02611
G1 X166.080 Y135.338 E0.02669
G1 X166.242 Y134.523 E0.02605
G1 X166.329 Y133.777 E0.02357
G1 X166.360 Y133.012 E0.02400
G1 X166.326 Y132.185 E0.02595
G1 X166.224 Y131.366 E0.02586
G1 X165.552 Y127.553 E0.12140
G1 X165.382 Y126.798 E0.02429
G1 X165.149 Y126.051 E0.02450
G1 X164.879 Y125.378 E0.02275
G1 X164.557 Y124.721 F10800.000
G1 F1200.000
G1 X164.135 Y124.006 E0.02603
G1 X163.701 Y123.393 E0.02355
G1 X163.238 Y122.849 E0.02239
G1 X164.927 Y120.415 E0.09289
G1 X165.359 Y119.792 F10800.000
G1 F1200.000
G1 X167.452 Y116.776 E0.11510
G1 X167.826 Y115.827 E0.03199
G1 X167.972 Y114.859 E0.03071
G1 X167.744 Y113.198 E0.05254
G1 X167.279 Y112.156 E0.03579
G1 X166.505 Y111.204 E0.03848
G1 X165.791 Y110.697 E0.02744
G1 X165.414 Y110.430 F10800.000
G1 F1200.000
G1 X163.850 Y109.321 E0.06013
G1 X162.748 Y108.878 E0.03721
G1 X161.670 Y108.741 E0.03408
G1 X160.626 Y108.888 E0.03307
G1 X160.601 Y107.088 E0.05644
G1 X160.241 Y105.972 E0.03677
G1 X161.031 Y105.600 E0.02737
G1 X161.733 Y105.196 E0.02540
G1 X162.396 Y104.740 E0.02524
G1 X163.147 Y104.116 E0.03059
G1 X163.778 Y103.483 E0.02803
G1 X164.283 Y102.882 E0.02461
G1 X164.745 Y102.233 E0.02499
G1 X165.200 Y101.463 E0.02805
G1 X165.412 Y101.022 E0.01534
G1 X165.789 Y100.114 F10800.000
G1 F1200.000
G1 X166.073 Y99.179 E0.03063
G1 X166.242 Y98.333 E0.02707
G1 X166.328 Y97.601 E0.02311
G1 X166.360 Y96.824 E0.02438
G1 X166.329 Y96.030 E0.02490
G1 X166.219 Y95.141 E0.02810
G1 X165.788 Y92.696 E0.07783
G1 F8640.000
G1 X166.219 Y95.141 E-0.57319
G1 X166.318 Y95.943 E-0.18681
G1 E-0.04000 F2100.00000
G1 Z0.800 F10800.000
G1 X165.410 Y90.719
G1 Z0.200
G1 E0.80000 F2100.00000
G1 F1200.000
G1 X165.155 Y89.879 E0.02753
G1 X164.871 Y89.167 E0.02404
G1 X164.525 Y88.469 E0.02442
G1 X164.136 Y87.818 E0.02379
G1 X163.719 Y87.228 E0.02265
G1 X163.239 Y86.660 E0.02330
G1 X165.409 Y83.541 E0.11914
G1 X165.786 Y82.999 F10800.000
G1 F1200.000
G1 X167.410 Y80.664 E0.08919
G1 X167.831 Y79.617 E0.03537
G1 X167.972 Y78.509 E0.03501
G1 X167.628 Y76.645 E0.05941
G1 X167.205 Y75.849 E0.02828
G1 X166.557 Y75.062 E0.03194
G1 X163.814 Y73.111 E0.10555
G1 X162.747 Y72.688 E0.03597
G1 X161.670 Y72.551 E0.03406
G1 X160.720 Y72.689 E0.03008
G1 X160.638 Y72.614 F10800.000
G1 F1200.000
G1 X160.623 Y71.034 E0.04954
G1 X160.199 Y69.697 E0.04398
G1 X159.521 Y68.712 E0.03749
G1 X158.605 Y67.882 E0.03876
G1 X157.496 Y67.321 E0.03895
G1 X156.441 Y67.100 E0.03379
G1 X153.451 Y67.103 E0.09375
G1 X152.398 Y67.322 E0.03373
G1 X151.149 Y67.982 E0.04429
G1 X150.133 Y68.993 E0.04494
G1 X150.007 Y69.244 E0.00881
G1 X149.816 Y69.621 F10800.000
G1 F1200.000
G1 X149.392 Y70.463 E0.02955
G1 X149.238 Y71.340 E0.02791
G1 X149.234 Y74.388 E0.09558
G1 X147.474 Y73.152 E0.06744
G1 X146.487 Y72.729 E0.03368
G1 X145.144 Y72.553 E0.04246
G1 X144.210 Y72.693 E0.02961
G1 X144.186 Y70.897 E0.05634
G1 X143.829 Y69.790 E0.03645
G1 X143.719 Y69.621 E0.00630
G1 X143.475 Y69.244 F10800.000
G1 F1200.000
G1 X143.201 Y68.822 E0.01578
G1 X141.990 Y67.748 E0.05075
G1 X141.059 Y67.314 E0.03223
G1 X140.062 Y67.104 E0.03193
G1 X137.117 Y67.096 E0.09232
G1 X136.220 Y67.243 E0.02850
G1 X134.897 Y67.868 E0.04588
G1 X133.801 Y68.883 E0.04683
G1 X133.604 Y69.244 E0.01290
G1 X133.399 Y69.622 F10800.000
G1 F1200.000
G1 X133.038 Y70.284 E0.02365
G1 X132.828 Y71.293 E0.03231
G1 X132.820 Y74.389 E0.09707
G1 X131.059 Y73.152 E0.06747
G1 X130.072 Y72.729 E0.03368
G1 X128.729 Y72.553 E0.04246
G1 X127.796 Y72.693 E0.02958
G1 X127.762 Y70.845 E0.05796
G1 X127.416 Y69.794 E0.03468
G1 X127.306 Y69.622 E0.00641
G1 X127.066 Y69.244 F10800.000
G1 F1200.000
G1 X126.828 Y68.871 E0.01388
G1 X125.699 Y67.830 E0.04816
G1 X124.714 Y67.338 E0.03450
G1 X123.693 Y67.109 E0.03283
G1 X120.702 Y67.096 E0.09375
G1 X119.807 Y67.243 E0.02846
G1 X118.536 Y67.831 E0.04389
G1 X117.433 Y68.823 E0.04651
G1 X117.199 Y69.245 E0.01512
G1 X116.990 Y69.622 F10800.000
G1 F1200.000
G1 X116.626 Y70.279 E0.02356
G1 X116.417 Y71.255 E0.03131
G1 X116.404 Y74.388 E0.09823
G1 X114.644 Y73.152 E0.06745
G1 X113.657 Y72.729 E0.03368
G1 X112.314 Y72.553 E0.04246
G1 X111.377 Y72.694 E0.02971
G1 X111.355 Y70.892 E0.05649
G1 X110.957 Y69.704 E0.03928
G1 X110.903 Y69.622 E0.00311
G1 X110.452 Y69.622 F10800.000
G1 F1200.000
G1 X110.629 Y69.891 E0.01008
G1 X110.979 Y70.927 E0.03428
G1 X111.005 Y73.137 E0.06932
G1 X112.295 Y72.931 E0.04096
G1 X113.534 Y73.086 E0.03916
G1 X114.444 Y73.472 E0.03098
G1 X116.780 Y75.113 E0.08951
G1 X116.790 Y71.312 E0.11918
G1 X116.970 Y70.434 E0.02811
G1 X117.415 Y69.622 E0.02903
G1 X117.621 Y69.245 F10800.000
G1 F1200.000
G1 X117.711 Y69.080 E0.00588
G1 X118.723 Y68.160 E0.04288
G1 X119.895 Y67.611 E0.04059
G1 X120.717 Y67.473 E0.02613
G1 X123.670 Y67.486 E0.09258
G1 X124.607 Y67.700 E0.03014
G1 X125.505 Y68.154 E0.03154
G1 X126.523 Y69.094 E0.04345
G1 X126.619 Y69.244 E0.00558
G1 X126.859 Y69.622 F10800.000
G1 F1200.000
G1 X127.085 Y69.976 E0.01318
G1 X127.395 Y70.933 E0.03153
G1 X127.424 Y73.137 E0.06910
G1 X128.710 Y72.931 E0.04084
G1 X129.949 Y73.086 E0.03916
G1 X130.859 Y73.472 E0.03098
G1 X133.195 Y75.113 E0.08951
G1 X133.205 Y71.312 E0.11918
G1 X133.384 Y70.437 E0.02800
G1 X133.822 Y69.622 E0.02903
G1 X134.024 Y69.244 F10800.000
G1 F1200.000
G1 X134.082 Y69.136 E0.00385
G1 X135.086 Y68.195 E0.04316
G1 X136.309 Y67.611 E0.04249
G1 X137.132 Y67.473 E0.02617
G1 X140.041 Y67.481 E0.09119
G1 X140.958 Y67.678 E0.02940
G1 X141.804 Y68.077 E0.02934
G1 X142.930 Y69.086 E0.04741
G1 X143.033 Y69.244 E0.00592
G1 X143.278 Y69.621 F10800.000
G1 F1200.000
G1 X143.479 Y69.932 E0.01160
G1 X143.809 Y70.931 E0.03300
G1 X143.839 Y73.137 E0.06916
G1 X145.125 Y72.931 E0.04084
G1 X146.364 Y73.086 E0.03916
G1 X147.274 Y73.472 E0.03098
G1 X149.610 Y75.113 E0.08952
G1 X149.615 Y71.357 E0.11777
G1 X149.758 Y70.557 E0.02547
G1 X150.236 Y69.621 E0.03295
G1 X150.428 Y69.244 F10800.000
G1 F1200.000
G1 X150.454 Y69.193 E0.00181
G1 X151.392 Y68.272 E0.04122
G1 X152.547 Y67.669 E0.04085
G1 X153.506 Y67.477 E0.03066
G1 X156.421 Y67.477 E0.09138
G1 X157.393 Y67.685 E0.03117
G1 X158.370 Y68.178 E0.03432
G1 X159.251 Y68.976 E0.03725
G1 X159.871 Y69.885 E0.03450
G1 X160.254 Y71.118 E0.04048
G1 X160.259 Y72.269 E0.03609
G1 X160.261 Y72.781 F10800.000
G1 F1200.000
G1 X160.262 Y73.142 E0.01133
G1 X160.601 Y73.090 E0.01073
G1 X161.080 Y73.016 F10800.000
G1 F1200.000
G1 X161.649 Y72.928 E0.01806
G1 X162.676 Y73.059 E0.03246
G1 X163.614 Y73.432 E0.03165
G1 X166.282 Y75.322 E0.10251
G1 X166.901 Y76.073 E0.03053
G1 X167.281 Y76.795 E0.02558
G1 X167.594 Y78.490 E0.05404
G1 X167.460 Y79.544 E0.03331
G1 X167.069 Y80.501 E0.03241
G1 X165.785 Y82.344 E0.07042
G1 X165.409 Y82.885 F10800.000
G1 F1200.000
G1 X162.764 Y86.683 E0.14511
G1 X163.416 Y87.452 E0.03162
G1 X163.824 Y88.029 E0.02215
G1 X164.191 Y88.643 E0.02242
G1 X164.523 Y89.314 E0.02347
G1 X164.802 Y90.011 E0.02355
G1 X165.039 Y90.788 E0.02547
G1 X165.186 Y91.458 E0.02152
G1 X165.411 Y92.729 E0.04046
G1 F8640.000
G1 X165.186 Y91.458 E-0.29793
G1 X165.039 Y90.788 E-0.15845
G1 X164.802 Y90.011 E-0.18758
G1 X164.616 Y89.544 E-0.11605
G1 E-0.04000 F2100.00000
G1 Z0.800 F10800.000
G1 X165.788 Y94.870
G1 Z0.200
G1 E0.80000 F2100.00000
G1 F1200.000
G1 X165.953 Y96.053 E0.03744
G1 X165.983 Y96.831 E0.02441
G1 X165.953 Y97.564 E0.02301
G1 X165.871 Y98.266 E0.02217
G1 X165.789 Y98.678 E0.01316
G1 F8640.000
G1 X165.871 Y98.266 E-0.09694
G1 X165.953 Y97.564 E-0.16329
G1 X165.983 Y96.831 E-0.16946
G1 X165.953 Y96.053 E-0.17979
G1 X165.863 Y95.407 E-0.15051
G1 E-0.04000 F2100.00000
G1 Z0.800 F10800.000
G1 X165.412 Y100.044
G1 Z0.200
G1 E0.80000 F2100.00000
G1 F1200.000
G1 X165.197 Y100.601 E0.01874
G1 X164.864 Y101.292 E0.02403
G1 X164.433 Y102.021 E0.02656
G1 X163.989 Y102.645 E0.02403
G1 X163.494 Y103.234 E0.02412
G1 X162.899 Y103.832 E0.02645
G1 X162.175 Y104.434 E0.02952
G1 X161.538 Y104.873 E0.02424
G1 X160.849 Y105.269 E0.02491
G1 X160.158 Y105.594 E0.02394
G1 X159.684 Y105.774 E0.01592
G1 X159.888 Y106.108 E0.01228
G1 X160.224 Y107.123 E0.03353
G1 X160.255 Y109.326 E0.06908
G1 X161.649 Y109.119 E0.04420
G1 X162.677 Y109.249 E0.03249
G1 X163.650 Y109.641 E0.03290
G1 X165.414 Y110.887 E0.06771
G1 X165.791 Y111.153 F10800.000
G1 F1200.000
G1 X166.230 Y111.463 E0.01684
G1 X166.947 Y112.335 E0.03540
G1 X167.375 Y113.279 E0.03249
G1 X167.595 Y114.830 E0.04912
G1 X167.456 Y115.749 E0.02914
G1 X167.110 Y116.616 E0.02928
G1 X165.424 Y119.043 E0.09265
