; generated by PrusaSlicer 2.2.0+win64 on 2020-04-06 at 12:25:39 UTC

; 

; external perimeters extrusion width = 0.60mm
; perimeters extrusion width = 0.50mm
; infill extrusion width = 0.50mm
; solid infill extrusion width = 0.50mm
; top infill extrusion width = 0.45mm
; first layer extrusion width = 0.42mm

M73 P0 R17
M73 Q0 S17
M201 X1000 Y1000 Z1000 E5000 ; sets maximum accelerations, mm/sec^2
M203 X200 Y200 Z12 E120 ; sets maximum feedrates, mm/sec
M204 P1250 R1250 T1250 ; sets acceleration (P, T) and retract acceleration (R), mm/sec^2
M205 X8.00 Y8.00 Z0.40 E4.50 ; sets the jerk limits, mm/sec
M205 S0 T0 ; sets the minimum extruding and travel feed rate, mm/sec
M107
M862.3 P "MK3S" ; printer model check
M862.1 P0.4 ; nozzle diameter check
M115 U3.8.1 ; tell printer latest fw version
G90 ; use absolute coordinates
M83 ; extruder relative mode
M104 S215 ; set extruder temp
M140 S60 ; set bed temp
M190 S60 ; wait for bed temp
M109 S215 ; wait for extruder temp
G28 W ; home all without mesh bed level
G80 ; mesh bed leveling
G1 Y-3.0 F1000.0 ; go outside print area
G92 E0.0
G1 X60.0 E9.0 F1000.0 ; intro line
M73 Q0 S17
M73 P0 R17
G1 X100.0 E12.5 F1000.0 ; intro line
G92 E0.0
M221 S95
G21 ; set units to millimeters
G90 ; use absolute coordinates
M83 ; use relative distances for extrusion
M900 K30 ; Filament gcode
;BEFORE_LAYER_CHANGE
G92 E0.0
;0.2


G1 E-0.80000 F2100.00000
G1 Z0.600 F10800.000
;AFTER_LAYER_CHANGE
;0.2
G1 X112.368 Y86.543
G1 Z0.200
G1 E0.80000 F2100.00000
M204 S1000
G1 F1200.000
G1 X113.313 Y86.291 E0.03069
G1 X115.543 Y86.282 E0.06992
G1 X132.096 Y88.037 E0.52193
G1 X132.764 Y88.198 E0.02154
G1 X133.635 Y88.728 E0.03195
G1 X140.956 Y95.393 E0.31042
G1 X141.475 Y96.055 E0.02638
G1 X141.760 Y96.794 E0.02485
G1 X141.823 Y97.580 E0.02473
G1 X140.123 Y117.158 E0.61615
G1 X139.847 Y118.255 E0.03546
G1 X139.574 Y118.973 E0.02408
G1 X139.234 Y119.654 E0.02387
G1 X138.613 Y120.599 E0.03546
G1 X137.574 Y121.719 E0.04789
G1 X136.670 Y122.412 E0.03572
G1 X136.061 Y122.778 E0.02228
G1 X135.298 Y123.137 E0.02643
G1 X134.124 Y123.514 E0.03867
G1 X132.905 Y123.703 E0.03867
G1 X132.068 Y123.725 E0.02625
G1 X114.593 Y121.857 E0.55103
G1 X113.167 Y121.451 E0.04649
G1 X112.144 Y120.969 E0.03546
G1 X111.491 Y120.561 E0.02415
G1 X110.885 Y120.093 E0.02399
G1 X110.077 Y119.299 E0.03553
G1 X109.184 Y118.070 E0.04763
G1 X108.637 Y116.946 E0.03918
G1 X108.275 Y115.761 E0.03886
G1 X108.133 Y114.901 E0.02731
G1 X108.095 Y113.644 E0.03945
G1 X110.839 Y88.494 E0.79324
G1 X111.038 Y87.883 E0.02014
G1 X111.373 Y87.335 E0.02014
G1 X111.825 Y86.880 E0.02014
G1 X112.317 Y86.575 E0.01813
G1 X112.576 Y86.863 F10800.000
G1 F1200.000
G1 X113.374 Y86.664 E0.02579
G1 X115.543 Y86.659 E0.06801
G1 X132.052 Y88.411 E0.52053
G1 X132.625 Y88.548 E0.01846
G1 X133.382 Y89.008 E0.02778
G1 X140.694 Y95.665 E0.31006
G1 X141.141 Y96.230 E0.02260
G1 X141.392 Y96.874 E0.02166
G1 X141.446 Y97.563 E0.02166
G1 X139.754 Y117.079 E0.61420
G1 X139.487 Y118.143 E0.03441
G1 X139.229 Y118.821 E0.02275
G1 X138.908 Y119.464 E0.02254
G1 X138.307 Y120.379 E0.03430
G1 X137.328 Y121.434 E0.04512
G1 X135.887 Y122.443 E0.05516
G1 X135.165 Y122.784 E0.02505
G1 X134.037 Y123.147 E0.03715
G1 X132.866 Y123.328 E0.03715
G1 X132.080 Y123.348 E0.02465
G1 X114.660 Y121.486 E0.54928
G1 X113.313 Y121.104 E0.04393
G1 X112.323 Y120.638 E0.03430
G1 X111.710 Y120.254 E0.02268
G1 X111.134 Y119.810 E0.02279
G1 X110.356 Y119.045 E0.03422
G1 X109.518 Y117.893 E0.04465
G1 X108.989 Y116.812 E0.03774
G1 X108.642 Y115.673 E0.03733
G1 X108.509 Y114.870 E0.02551
G1 X108.471 Y113.659 E0.03799
G1 X111.205 Y88.586 E0.79082
G1 X111.381 Y88.040 E0.01799
G1 X111.680 Y87.554 E0.01787
G1 X112.086 Y87.155 E0.01787
G1 X112.524 Y86.893 E0.01599
G1 F8640.000
G1 X113.374 Y86.664 E-0.20319
G1 X115.543 Y86.659 E-0.50084
G1 X115.784 Y86.684 E-0.05597
G1 E-0.04000 F2100.00000
G1 Z0.800 F10800.000
G1 X116.034 Y84.326
G1 Z0.200
G1 E0.80000 F2100.00000
G1 F1200.000
G1 X113.114 Y84.322 E0.09155
G1 X111.879 Y84.588 E0.03961
G1 X110.743 Y85.207 E0.04056
G1 X109.839 Y86.067 E0.03914
G1 X108.921 Y87.896 E0.06416
G1 X108.826 Y88.637 E0.02341
G1 X108.821 Y105.246 E0.52079
G1 F8640.000
G1 X108.822 Y101.955 E-0.76000
G1 E-0.04000 F2100.00000
G1 Z0.800 F10800.000
G1 X108.573 Y107.519
G1 Z0.200
G1 E0.80000 F2100.00000
G1 F1200.000
G1 X108.039 Y108.181 E0.02668
G1 X107.580 Y108.868 E0.02590
G1 X107.176 Y109.594 E0.02605
G1 X106.829 Y110.370 E0.02665
G1 X106.561 Y111.129 E0.02524
G1 X106.359 Y111.899 E0.02496
G1 X106.208 Y112.759 E0.02737
G1 X106.139 Y113.521 E0.02401
G1 X106.130 Y114.338 E0.02561
G1 X106.191 Y115.173 E0.02625
G1 X106.344 Y116.104 E0.02959
G1 X106.550 Y116.905 E0.02594
G1 X106.821 Y117.684 E0.02586
G1 X107.207 Y118.539 E0.02939
G1 X107.575 Y119.195 E0.02359
G1 X107.984 Y119.814 E0.02327
G1 X108.534 Y120.513 E0.02789
G1 X109.098 Y121.114 E0.02583
G1 X109.712 Y121.668 E0.02593
G1 X110.396 Y122.186 E0.02691
G1 X111.151 Y122.661 E0.02796
G1 X111.806 Y123.000 E0.02312
G1 X112.485 Y123.290 E0.02315
G1 X113.306 Y123.565 E0.02717
G1 X114.177 Y123.773 E0.02808
G1 X115.097 Y123.904 E0.02914
G1 X115.917 Y123.948 E0.02572
G1 X116.731 Y123.925 E0.02555
G1 X117.569 Y123.830 E0.02643
G1 X118.366 Y123.672 E0.02549
G1 X119.145 Y123.450 E0.02540
G1 X119.904 Y123.165 E0.02542
G1 X120.623 Y122.826 E0.02492
G1 X120.820 Y122.712 E0.00713
G1 F8640.000
G1 X120.623 Y122.826 E-0.05254
G1 X119.904 Y123.165 E-0.18350
G1 X119.145 Y123.450 E-0.18719
G1 X118.366 Y123.672 E-0.18702
G1 X117.730 Y123.798 E-0.14974
G1 E-0.04000 F2100.00000
G1 Z0.800 F10800.000
G1 X121.843 Y122.064
G1 Z0.200
G1 E0.80000 F2100.00000
G1 F1200.000
G1 X122.017 Y121.944 E0.00662
G1 X122.738 Y121.343 E0.02943
G1 X123.579 Y120.489 E0.03757
G1 X123.817 Y120.917 E0.01537
G1 X124.235 Y121.550 E0.02377
G1 X124.732 Y122.187 E0.02534
G1 X124.923 Y122.393 E0.00881
G1 F8640.000
G1 X124.732 Y122.187 E-0.06486
G1 X124.235 Y121.550 E-0.18663
G1 X123.817 Y120.917 E-0.17504
G1 X123.579 Y120.489 E-0.11315
G1 X122.909 Y121.169 E-0.22031
G1 E-0.04000 F2100.00000
G1 Z0.800 F10800.000
G1 X125.787 Y123.243
G1 Z0.200
G1 E0.80000 F2100.00000
G1 F1200.000
G1 X126.005 Y123.440 E0.00923
G1 X126.691 Y123.954 E0.02689
G1 X127.404 Y124.399 E0.02633
G1 X128.071 Y124.744 E0.02354
G1 X128.752 Y125.034 E0.02322
G1 X129.593 Y125.313 E0.02777
G1 X130.447 Y125.514 E0.02752
G1 X131.300 Y125.638 E0.02701
G1 X132.152 Y125.686 E0.02677
G1 X133.000 Y125.662 E0.02660
G1 X133.838 Y125.566 E0.02643
G1 X134.603 Y125.414 E0.02447
G1 X135.352 Y125.203 E0.02441
G1 X136.127 Y124.915 E0.02592
G1 X136.891 Y124.556 E0.02644
G1 X137.566 Y124.168 E0.02443
G1 X138.212 Y123.725 E0.02456
G1 X138.963 Y123.107 E0.03049
G1 X139.565 Y122.510 E0.02657
G1 X140.115 Y121.863 E0.02664
G1 X140.579 Y121.213 E0.02503
G1 X140.997 Y120.515 E0.02551
G1 X141.364 Y119.770 E0.02605
G1 X141.683 Y118.946 E0.02770
G1 X141.929 Y118.097 E0.02771
G1 X142.082 Y117.331 E0.02451
G1 X142.174 Y116.552 E0.02460
G1 X142.205 Y115.768 E0.02459
G1 X142.172 Y114.974 E0.02493
G1 X142.063 Y114.104 E0.02747
G1 X141.402 Y110.353 E0.11945
G1 X141.242 Y109.632 E0.02315
G1 X141.027 Y108.932 E0.02297
G1 F8640.000
G1 X141.242 Y109.632 E-0.16914
G1 X141.402 Y110.353 E-0.17045
G1 X141.718 Y112.146 E-0.42041
G1 E-0.04000 F2100.00000
G1 Z0.800 F10800.000
G1 X140.397 Y107.487
G1 Z0.200
G1 E0.80000 F2100.00000
G1 F1200.000
G1 X139.981 Y106.782 E0.02566
G1 X139.564 Y106.192 E0.02265
G1 X139.083 Y105.623 E0.02336
G1 X140.769 Y103.187 E0.09291
G1 F8640.000
G1 X139.083 Y105.623 E-0.68418
G1 X139.295 Y105.874 E-0.07582
G1 E-0.04000 F2100.00000
G1 Z0.800 F10800.000
G1 X141.634 Y101.939
G1 Z0.200
G1 E0.80000 F2100.00000
G1 F1200.000
G1 X143.324 Y99.499 E0.09307
G1 X143.703 Y98.469 E0.03439
G1 X143.816 Y97.421 E0.03305
G1 X143.586 Y95.960 E0.04638
G1 X143.209 Y95.068 E0.03038
G1 X142.243 Y93.878 E0.04805
G1 X139.621 Y92.055 E0.10014
G1 X138.595 Y91.653 E0.03454
G1 X137.458 Y91.516 E0.03591
G1 X137.044 Y91.576 E0.01312
G1 X136.465 Y91.050 F10800.000
G1 F1200.000
G1 X136.455 Y89.921 E0.03538
G1 X136.068 Y88.711 E0.03984
G1 X135.430 Y87.750 E0.03616
G1 X134.341 Y86.772 E0.04591
G1 X133.358 Y86.292 E0.03429
G1 X132.280 Y86.064 E0.03456
G1 X129.328 Y86.064 E0.09255
G1 X128.131 Y86.327 E0.03843
G1 X127.029 Y86.921 E0.03922
G1 X126.674 Y87.272 E0.01568
G1 X125.982 Y87.957 F10800.000
G1 F1200.000
G1 X125.253 Y89.377 E0.05007
G1 X125.081 Y90.333 E0.03045
G1 X125.076 Y91.498 E0.03653
G1 X123.481 Y90.378 E0.06112
G1 X122.494 Y89.955 E0.03368
G1 X121.151 Y89.779 E0.04246
G1 X120.230 Y89.917 E0.02920
G1 X120.206 Y88.204 E0.05372
G1 X119.930 Y87.314 E0.02922
G1 X119.504 Y86.512 F10800.000
G1 F1200.000
G1 X119.173 Y86.007 E0.01894
G1 X118.115 Y85.052 E0.04469
G1 X117.136 Y84.564 E0.03430
G1 X116.034 Y84.326 E0.03534
G1 F8640.000
G1 X117.136 Y84.564 E-0.26023
G1 X118.115 Y85.052 E-0.25262
G1 X118.910 Y85.769 E-0.24716
G1 E-0.04000 F2100.00000
G1 Z0.800 F10800.000
G1 X113.133 Y84.699
G1 Z0.200
G1 E0.80000 F2100.00000
G1 F1200.000
G1 X116.013 Y84.703 E0.09029
G1 X117.031 Y84.927 E0.03268
G1 X117.922 Y85.377 E0.03130
G1 X118.872 Y86.235 E0.04016
G1 X119.022 Y86.461 E0.00849
G1 X119.521 Y87.271 F10800.000
G1 F1200.000
G1 X119.838 Y88.289 E0.03344
G1 X119.856 Y90.361 E0.06497
G1 X121.132 Y90.157 E0.04053
G1 X122.371 Y90.312 E0.03916
G1 X123.281 Y90.698 E0.03098
G1 X125.455 Y92.225 E0.08328
G1 X125.455 Y90.380 E0.05783
G1 X125.603 Y89.520 E0.02736
G1 X126.258 Y88.213 E0.04584
G1 X126.464 Y88.008 E0.00912
G1 X127.149 Y87.323 F10800.000
G1 F1200.000
G1 X127.233 Y87.239 E0.00370
G1 X128.286 Y86.672 E0.03751
G1 X129.348 Y86.441 E0.03407
G1 X132.260 Y86.441 E0.09132
G1 X133.216 Y86.642 E0.03062
G1 X134.109 Y87.071 E0.03107
G1 X135.160 Y88.014 E0.04427
G1 X135.738 Y88.896 E0.03308
G1 X136.078 Y89.953 E0.03481
G1 X136.085 Y90.703 E0.02352
G1 F8640.000
G1 X136.078 Y89.953 E-0.17324
G1 X135.738 Y88.896 E-0.25634
G1 X135.160 Y88.014 E-0.24363
G1 X134.880 Y87.763 E-0.08679
G1 E-0.04000 F2100.00000
G1 Z0.800 F10800.000
G1 X136.094 Y91.732
G1 Z0.200
G1 E0.80000 F2100.00000
G1 F1200.000
G1 X136.097 Y92.101 E0.01158
G1 X136.441 Y92.048 E0.01091
G1 X137.399 Y91.900 F10800.000
G1 F1200.000
G1 X138.525 Y92.024 E0.03551
G1 X139.460 Y92.397 E0.03157
G1 X142.005 Y94.172 E0.09729
G1 X142.873 Y95.241 E0.04316
G1 X143.218 Y96.044 E0.02741
G1 X143.438 Y97.407 E0.04327
G1 X143.330 Y98.405 E0.03148
G1 X142.979 Y99.344 E0.03143
G1 X141.699 Y101.189 E0.07042
G1 F8640.000
G1 X142.979 Y99.344 E-0.51860
G1 X143.330 Y98.405 E-0.23150
G1 X143.335 Y98.362 E-0.00991
G1 E-0.04000 F2100.00000
G1 Z0.800 F10800.000
G1 X140.835 Y102.435
G1 Z0.200
G1 E0.80000 F2100.00000
G1 F1200.000
G1 X138.607 Y105.646 E0.12252
G1 X139.261 Y106.416 E0.03166
G1 X139.669 Y106.993 E0.02215
G1 X140.036 Y107.607 E0.02242
G1 X140.334 Y108.209 E0.02106
G1 F8640.000
G1 X140.036 Y107.607 E-0.15512
G1 X139.669 Y106.993 E-0.16510
G1 X139.261 Y106.416 E-0.16315
G1 X138.607 Y105.646 E-0.23319
G1 X138.715 Y105.492 E-0.04344
G1 E-0.04000 F2100.00000
G1 Z0.800 F10800.000
G1 X140.935 Y109.987
G1 Z0.200
G1 E0.80000 F2100.00000
G1 F1200.000
G1 X141.031 Y110.422 E0.01396
G1 X141.691 Y114.165 E0.11917
G1 X141.796 Y114.997 E0.02629
G1 X141.828 Y115.761 E0.02398
G1 X141.799 Y116.515 E0.02365
G1 X141.710 Y117.264 E0.02365
G1 X141.560 Y118.016 E0.02402
G1 X141.329 Y118.818 E0.02618
G1 X141.022 Y119.611 E0.02668
G1 X140.670 Y120.329 E0.02506
G1 X140.268 Y121.000 E0.02453
G1 X139.813 Y121.637 E0.02454
G1 X139.293 Y122.248 E0.02515
G1 X138.716 Y122.822 E0.02551
G1 X137.992 Y123.419 E0.02942
G1 X137.371 Y123.845 E0.02360
G1 X136.723 Y124.218 E0.02348
G1 X135.988 Y124.565 E0.02545
G1 X135.243 Y124.842 E0.02495
G1 X134.508 Y125.049 E0.02393
G1 X133.772 Y125.195 E0.02352
G1 X132.966 Y125.286 E0.02545
G1 X132.150 Y125.309 E0.02560
G1 X131.345 Y125.263 E0.02526
G1 X130.525 Y125.145 E0.02598
G1 X129.703 Y124.952 E0.02648
G1 X128.893 Y124.684 E0.02677
G1 X128.225 Y124.400 E0.02275
G1 X127.584 Y124.068 E0.02263
G1 X126.911 Y123.648 E0.02487
G1 X126.469 Y123.316 E0.01734
G1 F8640.000
G1 X126.911 Y123.648 E-0.12771
G1 X127.584 Y124.068 E-0.18313
G1 X128.225 Y124.400 E-0.16669
G1 X128.893 Y124.684 E-0.16754
G1 X129.365 Y124.840 E-0.11493
G1 E-0.04000 F2100.00000
G1 Z0.800 F10800.000
G1 X125.494 Y122.454
G1 Z0.200
G1 E0.80000 F2100.00000
G1 F1200.000
G1 X125.024 Y121.949 E0.02165
G1 X124.545 Y121.336 E0.02437
G1 X124.136 Y120.716 E0.02329
G1 X123.635 Y119.811 E0.03245
G1 X123.053 Y120.497 E0.02821
G1 X122.491 Y121.058 E0.02491
G1 X121.782 Y121.649 E0.02892
G1 X121.270 Y122.003 E0.01952
G1 F8640.000
G1 X121.782 Y121.649 E-0.14377
G1 X122.491 Y121.058 E-0.21298
G1 X123.053 Y120.497 E-0.18341
G1 X123.635 Y119.811 E-0.20777
G1 X123.660 Y119.857 E-0.01207
G1 E-0.04000 F2100.00000
G1 Z0.800 F10800.000
G1 X120.135 Y122.639
G1 Z0.200
G1 E0.80000 F2100.00000
G1 F1200.000
G1 X119.750 Y122.820 E0.01333
G1 X119.020 Y123.094 E0.02445
G1 X118.271 Y123.307 E0.02443
G1 X117.504 Y123.459 E0.02452
G1 X116.712 Y123.548 E0.02496
G1 X115.914 Y123.571 E0.02505
G1 X115.126 Y123.528 E0.02472
G1 X114.256 Y123.404 E0.02756
G1 X113.418 Y123.205 E0.02702
G1 X112.625 Y122.940 E0.02619
G1 X111.973 Y122.662 E0.02224
G1 X111.332 Y122.329 E0.02265
G1 X110.617 Y121.881 E0.02645
G1 X109.959 Y121.382 E0.02590
G1 X109.368 Y120.850 E0.02493
G1 X108.815 Y120.261 E0.02532
G1 X108.294 Y119.600 E0.02639
G1 X107.893 Y118.993 E0.02280
G1 X107.540 Y118.362 E0.02268
G1 X107.175 Y117.552 E0.02784
G1 X106.909 Y116.789 E0.02535
G1 X106.711 Y116.019 E0.02493
G1 X106.567 Y115.137 E0.02802
G1 X106.507 Y114.334 E0.02524
G1 X106.515 Y113.547 E0.02466
G1 X106.581 Y112.816 E0.02303
G1 X106.729 Y111.972 E0.02687
G1 X106.924 Y111.232 E0.02398
G1 X107.176 Y110.516 E0.02380
G1 X107.510 Y109.770 E0.02566
G1 X107.897 Y109.070 E0.02506
G1 X108.339 Y108.409 E0.02493
G1 X108.498 Y108.210 E0.00800
G1 F8640.000
G1 X108.339 Y108.409 E-0.05892
G1 X107.897 Y109.070 E-0.18357
G1 X107.510 Y109.770 E-0.18453
G1 X107.176 Y110.516 E-0.18896
G1 X106.969 Y111.105 E-0.14402
G1 E-0.04000 F2100.00000
G1 Z0.800 F10800.000
G1 X109.199 Y101.782
G1 Z0.200
G1 E0.80000 F2100.00000
G1 F1200.000
G1 X109.203 Y88.649 E0.41177
G1 X109.291 Y87.977 E0.02127
G1 X110.122 Y86.318 E0.05818
G1 X110.985 Y85.498 E0.03731
G1 X112.034 Y84.933 E0.03735
G1 X113.133 Y84.699 E0.03525
G1 F8640.000
G1 X112.034 Y84.933 E-0.25962
G1 X110.985 Y85.498 E-0.27506
G1 X110.277 Y86.170 E-0.22531
G1 E-0.04000 F2100.00000
G1 Z0.800 F10800.000
G1 X115.992 Y85.080
G1 Z0.200
G1 E0.80000 F2100.00000
G1 F1200.000
G1 X113.152 Y85.076 E0.08902
G1 X112.186 Y85.279 E0.03095
G1 X111.225 Y85.789 E0.03410
G1 X110.406 Y86.568 E0.03546
G1 X109.660 Y88.058 E0.05222
G1 X109.580 Y88.662 E0.01911
G1 X109.577 Y98.318 E0.30275
G1 F8640.000
G1 X109.578 Y95.026 E-0.76000
G1 E-0.04000 F2100.00000
G1 Z0.800 F10800.000
G1 X109.575 Y105.273
G1 Z0.200
G1 E0.80000 F2100.00000
G1 F1200.000
G1 X109.575 Y107.563 E0.07179
G1 X109.294 Y107.855 E0.01272
G1 F8640.000
G1 X109.575 Y107.563 E-0.09368
G1 X109.575 Y105.273 E-0.52868
G1 E-0.17764 F2100.00000
G1 Z0.800 F10800.000
G1 X108.414 Y108.975
G1 Z0.200
G1 E0.80000 F2100.00000
G1 F1200.000
G1 X108.216 Y109.273 E0.01123
G1 X107.844 Y109.945 E0.02407
G1 X107.523 Y110.663 E0.02466
G1 X107.282 Y111.350 E0.02283
G1 X107.099 Y112.045 E0.02252
G1 X106.954 Y112.873 E0.02636
G1 X106.892 Y113.573 E0.02204
G1 X106.884 Y114.329 E0.02371
G1 X106.942 Y115.100 E0.02424
G1 X107.078 Y115.933 E0.02646
G1 X107.272 Y116.687 E0.02441
G1 X107.528 Y117.420 E0.02434
G1 X107.873 Y118.185 E0.02631
G1 X108.219 Y118.803 E0.02220
G1 X108.604 Y119.385 E0.02189
G1 X109.096 Y120.009 E0.02491
G1 X109.626 Y120.575 E0.02432
G1 X110.205 Y121.096 E0.02442
G1 X110.838 Y121.575 E0.02488
G1 X111.512 Y121.998 E0.02497
G1 X112.128 Y122.318 E0.02174
G1 X112.766 Y122.590 E0.02177
G1 X113.529 Y122.844 E0.02519
G1 X114.335 Y123.035 E0.02597
G1 X115.155 Y123.152 E0.02599
G1 X115.926 Y123.194 E0.02421
G1 X116.693 Y123.172 E0.02406
G1 X117.438 Y123.087 E0.02351
G1 X118.175 Y122.942 E0.02355
G1 X118.895 Y122.738 E0.02346
G1 X119.377 Y122.558 E0.01613
G1 F8640.000
G1 X118.895 Y122.738 E-0.11876
