; generated by PrusaSlicer 2.2.0+win64 on 2020-04-06 at 12:29:25 UTC

; 

; external perimeters extrusion width = 0.60mm
; perimeters extrusion width = 0.50mm
; infill extrusion width = 0.50mm
; solid infill extrusion width = 0.50mm
; top infill extrusion width = 0.45mm
; first layer extrusion width = 0.42mm

M73 P0 R33
M73 Q0 S33
M201 X1000 Y1000 Z1000 E5000 ; sets maximum accelerations, mm/sec^2
M203 X200 Y200 Z12 E120 ; sets maximum feedrates, mm/sec
M204 P1250 R1250 T1250 ; sets acceleration (P, T) and retract acceleration (R), mm/sec^2
M205 X8.00 Y8.00 Z0.40 E4.50 ; sets the jerk limits, mm/sec
M205 S0 T0 ; sets the minimum extruding and travel feed rate, mm/sec
M107
M862.3 P "MK3S" ; printer model check
M862.1 P0.4 ; nozzle diameter check
M115 U3.8.1 ; tell printer latest fw version
G90 ; use absolute coordinates
M83 ; extruder relative mode
M104 S215 ; set extruder temp
M140 S60 ; set bed temp
M190 S60 ; wait for bed temp
M109 S215 ; wait for extruder temp
G28 W ; home all without mesh bed level
G80 ; mesh bed leveling
G1 Y-3.0 F1000.0 ; go outside print area
G92 E0.0
G1 X60.0 E9.0 F1000.0 ; intro line
M73 Q0 S33
M73 P0 R33
G1 X100.0 E12.5 F1000.0 ; intro line
G92 E0.0
M221 S95
G21 ; set units to millimeters
G90 ; use absolute coordinates
M83 ; use relative distances for extrusion
M900 K30 ; Filament gcode
;BEFORE_LAYER_CHANGE
G92 E0.0
;0.2


G1 E-0.80000 F2100.00000
G1 Z0.600 F10800.000
;AFTER_LAYER_CHANGE
;0.2
G1 X9.860 Y87.215
G1 Z0.200
G1 E0.80000 F2100.00000
M204 S1000
G1 F1200.000
G1 X10.303 Y86.586 E0.02414
G1 X13.453 Y83.445 E0.13949
G1 X13.986 Y83.100 E0.01989
G1 X14.590 Y82.909 E0.01989
G1 X235.004 Y82.873 E6.91092
G1 X235.909 Y83.054 E0.02896
G1 X236.678 Y83.566 E0.02896
G1 X239.863 Y86.774 E0.14174
G1 X240.241 Y87.457 E0.02449
G1 X240.377 Y88.230 E0.02461
G1 X240.358 Y122.050 E1.06039
G1 X240.138 Y122.788 E0.02414
G1 X239.697 Y123.414 E0.02402
G1 X236.547 Y126.555 E0.13949
G1 X236.014 Y126.900 E0.01989
G1 X235.410 Y127.091 E0.01989
G1 X14.947 Y127.126 E6.91247
G1 X14.098 Y126.949 E0.02720
G1 X13.371 Y126.482 E0.02708
G1 X10.197 Y123.300 E0.14092
G1 X9.852 Y122.768 E0.01989
G1 X9.659 Y122.160 E0.02000
G1 X9.641 Y87.954 E1.07251
G1 X9.843 Y87.273 E0.02226
G1 F8640.000
G1 X10.303 Y86.586 E-0.19093
G1 X12.048 Y84.846 E-0.56907
G1 E-0.04000 F2100.00000
G1 Z0.800 F10800.000
G1 X9.460 Y103.112
G1 Z0.200
G1 E0.80000 F2100.00000
G1 F1200.000
G1 X8.356 Y101.999 E0.04917
G1 X7.658 Y100.842 E0.04234
G1 X7.305 Y99.519 E0.04294
G1 X7.307 Y87.758 E0.36877
G1 X7.541 Y86.721 E0.03331
G1 X8.377 Y85.207 E0.05422
G1 X11.993 Y81.612 E0.15989
G1 X13.081 Y80.941 E0.04008
G1 X14.304 Y80.580 E0.03997
G1 X235.613 Y80.571 E6.93899
G1 X236.887 Y80.929 E0.04150
G1 X237.994 Y81.594 E0.04052
G1 X241.624 Y85.208 E0.16058
G1 X242.461 Y86.725 E0.05432
G1 X242.713 Y87.977 E0.04005
G1 X242.695 Y99.519 E0.36191
G1 X242.342 Y100.842 E0.04293
G1 X241.644 Y101.999 E0.04234
G1 X240.557 Y103.094 E0.04839
G1 X240.180 Y103.474 F10800.000
G1 F1200.000
G1 X238.665 Y105.000 E0.06740
G1 X240.178 Y106.512 E0.06708
G1 X240.555 Y106.889 F10800.000
G1 F1200.000
G1 X241.626 Y107.960 E0.04748
G1 X242.563 Y109.773 E0.06399
G1 X242.714 Y110.734 E0.03050
G1 X242.671 Y122.443 E0.36714
G1 X242.312 Y123.661 E0.03979
G1 X241.669 Y124.718 E0.03880
G1 X238.109 Y128.307 E0.15850
G1 X236.971 Y129.035 E0.04234
G1 X235.699 Y129.419 E0.04167
G1 X14.623 Y129.463 E6.93168
G1 X13.157 Y129.091 E0.04742
G1 X11.894 Y128.310 E0.04657
G1 X8.331 Y124.718 E0.15863
G1 X7.688 Y123.661 E0.03880
G1 X7.329 Y122.443 E0.03979
G1 X7.286 Y110.734 E0.36714
G1 X7.437 Y109.773 E0.03050
G1 X8.374 Y107.960 E0.06399
G1 X9.462 Y106.872 E0.04825
G1 X9.839 Y106.495 F10800.000
G1 F1200.000
G1 X11.335 Y105.000 E0.06630
G1 X9.838 Y103.492 E0.06662
G1 X9.837 Y102.961 F10800.000
G1 F1200.000
G1 X11.867 Y105.000 E0.09022
G1 X9.840 Y107.028 E0.08992
G1 X9.463 Y107.405 F10800.000
G1 F1200.000
G1 X8.661 Y108.206 E0.03553
G1 X7.805 Y109.863 E0.05847
G1 X7.664 Y110.748 E0.02812
G1 X7.699 Y122.364 E0.36421
M73 Q3 S32
M73 P3 R32
G1 X8.023 Y123.487 E0.03663
G1 X8.642 Y124.503 E0.03730
G1 X12.145 Y128.028 E0.15583
G1 X13.330 Y128.754 E0.04357
G1 X14.646 Y129.086 E0.04258
G1 X235.617 Y129.050 E6.92837
G1 X236.837 Y128.682 E0.03997
G1 X237.856 Y128.027 E0.03798
G1 X241.358 Y124.503 E0.15578
G1 X241.977 Y123.487 E0.03730
G1 X242.301 Y122.364 E0.03663
G1 X242.336 Y110.748 E0.36421
G1 X242.195 Y109.863 E0.02812
G1 X241.339 Y108.206 E0.05847
G1 X240.555 Y107.422 E0.03476
G1 X240.178 Y107.045 F10800.000
G1 F1200.000
G1 X238.133 Y105.000 E0.09069
G1 X240.180 Y102.943 E0.09101
G1 X240.558 Y102.564 F10800.000
G1 F1200.000
G1 X241.333 Y101.784 E0.03448
G1 X242.004 Y100.671 E0.04076
G1 X242.324 Y99.448 E0.03965
G1 X242.336 Y87.995 E0.35911
G1 X242.116 Y86.879 E0.03564
G1 X241.338 Y85.455 E0.05088
G1 X237.780 Y81.906 E0.15757
G1 X236.715 Y81.265 E0.03897
G1 X235.537 Y80.941 E0.03829
G1 X14.384 Y80.949 E6.93410
G1 X13.213 Y81.296 E0.03831
G1 X12.211 Y81.920 E0.03703
G1 X8.662 Y85.455 E0.15704
G1 X7.885 Y86.877 E0.05082
G1 X7.680 Y87.818 E0.03017
G1 X7.676 Y99.448 E0.36465
G1 X7.996 Y100.671 E0.03966
G1 X8.667 Y101.784 E0.04076
G1 X9.460 Y102.582 E0.03527
G1 X9.837 Y102.431 F10800.000
G1 F1200.000
G1 X12.401 Y105.000 E0.11379
G1 X9.840 Y107.561 E0.11355
G1 X9.463 Y107.938 F10800.000
G1 F1200.000
G1 X8.949 Y108.452 E0.02281
G1 X8.172 Y109.953 E0.05298
G1 X8.041 Y110.763 E0.02574
G1 X8.068 Y122.285 E0.36126
G1 X8.378 Y123.357 E0.03498
G1 X8.951 Y124.286 E0.03422
G1 X12.397 Y127.746 E0.15312
G1 X13.452 Y128.397 E0.03885
G1 X14.670 Y128.709 E0.03946
G1 X235.536 Y128.681 E6.92509
G1 X236.657 Y128.349 E0.03666
G1 X237.604 Y127.746 E0.03519
G1 X241.049 Y124.286 E0.15309
G1 X241.622 Y123.357 E0.03422
G1 X241.932 Y122.285 E0.03498
G1 X241.959 Y110.763 E0.36126
G1 X241.828 Y109.953 E0.02574
G1 X241.051 Y108.452 E0.05298
G1 X240.554 Y107.955 E0.02204
G1 X240.178 Y107.578 F10800.000
G1 F1200.000
G1 X237.599 Y105.000 E0.11432
G1 X240.181 Y102.413 E0.11458
G1 X240.558 Y102.035 F10800.000
G1 F1200.000
G1 X241.024 Y101.568 E0.02068
G1 X241.647 Y100.548 E0.03747
G1 X241.953 Y99.376 E0.03801
G1 X241.959 Y88.012 E0.35630
G1 X241.770 Y87.032 E0.03128
G1 X241.051 Y85.702 E0.04741
G1 X237.566 Y82.217 E0.15454
G1 X236.544 Y81.602 E0.03741
G1 X235.464 Y81.312 E0.03506
G1 X14.463 Y81.319 E6.92932
G1 X13.390 Y81.630 E0.03504
G1 X12.428 Y82.229 E0.03552
G1 X8.949 Y85.702 E0.15415
G1 X8.230 Y87.032 E0.04738
G1 X8.053 Y87.875 E0.02703
G1 X8.046 Y99.376 E0.36058
G1 X8.353 Y100.548 E0.03801
G1 X8.976 Y101.568 E0.03747
G1 X9.460 Y102.053 E0.02146
G1 X9.837 Y101.903 F10800.000
G1 F1200.000
G1 X12.648 Y104.714 E0.12466
G1 X13.078 Y105.000 E0.01618
G1 X12.648 Y105.286 E0.01618
G1 X9.840 Y108.094 E0.12452
G1 X9.463 Y108.471 F10800.000
G1 F1200.000
G1 X9.236 Y108.698 E0.01008
G1 X8.539 Y110.044 E0.04751
G1 X8.418 Y110.778 E0.02335
G1 X8.438 Y122.208 E0.35837
G1 X8.713 Y123.182 E0.03172
G1 X9.260 Y124.069 E0.03269
G1 X12.648 Y127.464 E0.15035
G1 X13.623 Y128.060 E0.03586
G1 X14.694 Y128.332 E0.03463
G1 X235.457 Y128.312 E6.92189
M73 Q6 S31
M73 P6 R30
G1 X236.479 Y128.016 E0.03335
G1 X237.352 Y127.464 E0.03237
G1 X240.740 Y124.069 E0.15037
G1 X241.287 Y123.182 E0.03269
G1 X241.562 Y122.208 E0.03172
G1 X241.582 Y110.778 E0.35837
G1 X241.461 Y110.044 E0.02335
G1 X240.764 Y108.698 E0.04751
G1 X240.554 Y108.488 E0.00932
G1 X240.177 Y108.111 F10800.000
G1 F1200.000
G1 X237.315 Y105.249 E0.12693
G1 X236.922 Y105.000 E0.01457
G1 X237.352 Y104.714 E0.01618
G1 X240.181 Y101.885 E0.12545
G1 X240.558 Y101.508 F10800.000
G1 F1200.000
G1 X240.714 Y101.353 E0.00689
G1 X241.310 Y100.377 E0.03586
G1 X241.582 Y99.306 E0.03463
G1 X241.582 Y88.029 E0.35359
G1 X241.424 Y87.184 E0.02697
G1 X240.765 Y85.949 E0.04389
G1 X237.317 Y82.500 E0.15290
G1 X236.375 Y81.940 E0.03436
G1 X235.392 Y81.683 E0.03184
G1 X14.543 Y81.688 E6.92459
G1 X13.521 Y81.984 E0.03336
G1 X12.648 Y82.536 E0.03238
G1 X9.235 Y85.949 E0.15132
G1 X8.576 Y87.184 E0.04389
G1 X8.426 Y87.930 E0.02388
G1 X8.418 Y99.306 E0.35668
G1 X8.690 Y100.377 E0.03463
G1 X9.286 Y101.353 E0.03586
G1 X9.460 Y101.526 E0.00768
G1 X9.837 Y101.369 F10800.000
G1 F1200.000
G1 X12.899 Y104.432 E0.13580
G1 X13.787 Y105.000 E0.03305
G1 X12.899 Y105.568 E0.03305
G1 X9.840 Y108.627 E0.13564
G1 X9.463 Y109.059 F10800.000
G1 F1200.000
G1 X8.906 Y110.136 E0.03801
G1 X8.795 Y110.794 E0.02094
G1 X8.808 Y122.131 E0.35544
G1 X9.069 Y123.053 E0.03005
G1 X9.568 Y123.851 E0.02951
G1 X12.899 Y127.181 E0.14768
G1 X13.746 Y127.702 E0.03119
G1 X14.718 Y127.955 E0.03149
G1 X235.381 Y127.942 E6.91871
G1 X236.303 Y127.681 E0.03005
G1 X237.101 Y127.182 E0.02951
G1 X240.432 Y123.851 E0.14771
G1 X240.931 Y123.053 E0.02951
G1 X241.192 Y122.131 E0.03005
G1 X241.205 Y110.794 E0.35544
G1 X241.094 Y110.136 E0.02094
G1 X240.554 Y109.093 E0.03683
G1 X240.177 Y108.644 F10800.000
G1 F1200.000
G1 X237.067 Y105.534 E0.13790
G1 X236.189 Y105.015 E0.03198
G1 X237.101 Y104.432 E0.03394
G1 X240.181 Y101.352 E0.13659
G1 X240.558 Y100.895 F10800.000
G1 F1200.000
G1 X240.952 Y100.254 E0.02358
G1 X241.205 Y99.282 E0.03149
G1 X241.205 Y88.045 E0.35231
G1 X241.076 Y87.333 E0.02271
G1 X240.478 Y86.195 E0.04031
G1 X237.067 Y82.784 E0.15122
G1 X236.208 Y82.279 E0.03126
G1 X235.323 Y82.054 E0.02863
G1 X14.619 Y82.058 E6.92000
G1 X13.697 Y82.319 E0.03005
G1 X12.899 Y82.818 E0.02951
G1 X9.522 Y86.195 E0.14973
G1 X8.924 Y87.333 E0.04033
G1 X8.800 Y87.983 E0.02073
G1 X8.795 Y99.282 E0.35428
G1 X9.048 Y100.254 E0.03149
G1 X9.459 Y100.924 E0.02465
G1 X9.836 Y100.827 F10800.000
G1 F1200.000
G1 X13.151 Y104.150 E0.14715
G1 X13.823 Y104.575 E0.02493
G1 X14.821 Y104.857 E0.03253
G1 X14.821 Y105.143 E0.00894
G1 X13.823 Y105.425 E0.03253
G1 X13.151 Y105.850 E0.02493
G1 X9.841 Y109.160 E0.14677
G1 X9.464 Y109.859 F10800.000
G1 F1200.000
G1 X9.273 Y110.229 E0.01305
G1 X9.172 Y110.811 E0.01851
G1 X9.179 Y122.056 E0.35259
G1 X9.404 Y122.879 E0.02675
G1 X9.850 Y123.600 E0.02660
G1 X13.150 Y126.900 E0.14631
G1 X13.871 Y127.345 E0.02658
G1 X14.743 Y127.578 E0.02831
G1 X235.306 Y127.571 E6.91558
G1 X236.129 Y127.346 E0.02674
G1 X236.850 Y126.900 E0.02660
G1 X240.150 Y123.600 E0.14631
G1 X240.596 Y122.879 E0.02660
G1 X240.821 Y122.056 E0.02675
G1 X240.828 Y110.811 E0.35259
G1 X240.727 Y110.229 E0.01851
G1 X240.553 Y109.893 E0.01187
G1 X240.177 Y109.177 F10800.000
G1 F1200.000
G1 X236.818 Y105.819 E0.14892
G1 X236.042 Y105.369 E0.02812
G1 X235.175 Y105.149 E0.02807
G1 X235.171 Y104.860 E0.00907
G1 X236.177 Y104.575 E0.03280
G1 X236.849 Y104.150 E0.02493
G1 X240.150 Y100.850 E0.14634
G1 X240.181 Y100.798 E0.00190
G1 X240.559 Y100.188 F10800.000
G1 F1200.000
G1 X240.595 Y100.129 E0.00218
G1 X240.828 Y99.257 E0.02831
G1 X240.828 Y88.061 E0.35104
G1 X240.727 Y87.479 E0.01851
G1 X240.190 Y86.440 E0.03667
G1 X236.818 Y83.069 E0.14950
G1 X236.043 Y82.620 E0.02810
G1 X235.255 Y82.426 E0.02543
G1 X14.694 Y82.429 E6.91555
M73 Q10 S29
M73 P10 R29
G1 X13.871 Y82.654 E0.02674
G1 X13.150 Y83.100 E0.02660
G1 X9.810 Y86.440 E0.14810
G1 X9.272 Y87.479 E0.03668
G1 X9.174 Y88.031 E0.01757
G1 X9.172 Y99.257 E0.35197
G1 X9.405 Y100.129 E0.02831
G1 X9.459 Y100.217 E0.00325
G1 F8640.000
G1 X9.405 Y100.129 E-0.02392
G1 X9.172 Y99.257 E-0.20851
G1 X9.172 Y96.972 E-0.52757
G1 E-0.04000 F2100.00000
G1 Z0.800 F10800.000
G1 X9.841 Y109.942
G1 Z0.200
G1 E0.80000 F2100.00000
G1 F1200.000
G1 X10.098 Y109.435 E0.01782
G1 X13.402 Y106.132 E0.14648
G1 X13.998 Y105.761 E0.02203
G1 X14.769 Y105.549 E0.02508
G1 X235.233 Y105.553 E6.91249
G1 X235.880 Y105.710 E0.02088
G1 X236.570 Y106.104 E0.02491
G1 X239.902 Y109.435 E0.14773
G1 X240.176 Y109.976 E0.01901
G1 X239.613 Y109.680 F10800.000
G1 F1200.000
G1 X240.026 Y110.511 E0.02911
G1 X240.074 Y110.837 E0.01034
G1 X240.074 Y121.954 E0.34855
G1 X239.885 Y122.622 E0.02179
G1 X239.587 Y123.096 E0.01755
G1 X236.346 Y126.337 E0.14367
G1 X235.872 Y126.635 E0.01755
G1 X235.204 Y126.824 E0.02179
G1 X14.796 Y126.824 E6.91072
G1 X14.128 Y126.635 E0.02179
G1 X13.654 Y126.337 E0.01755
G1 X10.413 Y123.096 E0.14367
G1 X10.115 Y122.622 E0.01755
G1 X9.926 Y121.954 E0.02179
G1 X9.926 Y110.837 E0.34855
G1 X9.974 Y110.511 E0.01034
G1 X10.387 Y109.680 E0.02911
G1 X13.654 Y106.413 E0.14484
G1 X14.128 Y106.115 E0.01755
G1 X14.796 Y105.926 E0.02179
G1 X235.211 Y105.930 E6.91095
G1 X235.719 Y106.052 E0.01640
G1 X236.322 Y106.389 E0.02166
G1 X239.570 Y109.637 E0.14402
G1 X239.304 Y109.904 F10800.000
G1 F1200.000
G1 X239.658 Y110.597 E0.02441
G1 X239.697 Y110.852 E0.00808
G1 X239.697 Y121.926 E0.34720
G1 X239.531 Y122.489 E0.01842
G1 X239.306 Y122.844 E0.01318
G1 X236.094 Y126.056 E0.14240
G1 X235.739 Y126.281 E0.01318
G1 X235.176 Y126.447 E0.01842
G1 X14.824 Y126.447 E6.90897
G1 X14.261 Y126.281 E0.01842
G1 X13.906 Y126.056 E0.01318
G1 X10.694 Y122.844 E0.14240
G1 X10.469 Y122.489 E0.01318
G1 X10.303 Y121.926 E0.01842
G1 X10.303 Y110.852 E0.34720
G1 X10.342 Y110.597 E0.00808
G1 X10.676 Y109.925 E0.02354
G1 X13.906 Y106.694 E0.14323
G1 X14.261 Y106.469 E0.01318
G1 X14.824 Y106.303 E0.01842
G1 X235.189 Y106.307 E6.90938
M73 Q13 S28
M73 P13 R28
G1 X235.562 Y106.396 E0.01202
G1 X236.076 Y106.676 E0.01834
G1 X239.261 Y109.862 E0.14126
G1 X239.290 Y110.686 F10800.000
G1 F1200.000
G1 X239.320 Y110.868 E0.00579
G1 X239.320 Y121.896 E0.34577
G1 X239.179 Y122.352 E0.01496
G1 X239.025 Y122.591 E0.00892
G1 X235.841 Y125.775 E0.14117
G1 X235.602 Y125.929 E0.00892
G1 X235.146 Y126.070 E0.01496
G1 X14.854 Y126.070 E6.90711
G1 X14.398 Y125.929 E0.01496
G1 X14.159 Y125.775 E0.00892
G1 X10.975 Y122.591 E0.14117
G1 X10.821 Y122.352 E0.00892
G1 X10.680 Y121.896 E0.01496
G1 X10.680 Y110.868 E0.34577
G1 X10.710 Y110.686 E0.00579
G1 X10.964 Y110.169 E0.01806
G1 X14.159 Y106.975 E0.14164
G1 X14.398 Y106.821 E0.00892
G1 X14.854 Y106.680 E0.01496
G1 X235.167 Y106.684 E6.90778
G1 X235.409 Y106.741 E0.00777
G1 X235.830 Y106.963 E0.01494
G1 X239.036 Y110.169 E0.14215
G1 X239.264 Y110.632 E0.01618
G1 F8640.000
G1 X239.320 Y110.868 E-0.05604
G1 X239.320 Y113.917 E-0.70396
G1 E-0.04000 F2100.00000
G1 Z0.800 F10800.000
G1 X235.260 Y107.088
G1 Z0.200
G1 E0.80000 F2100.00000
G1 F1200.000
G1 X235.586 Y107.252 E0.01144
G1 X238.747 Y110.413 E0.14016
G1 X238.924 Y110.777 E0.01270
G1 X238.943 Y110.886 E0.00345
G1 X238.943 Y121.864 E0.34423
G1 X238.830 Y122.209 E0.01136
G1 X238.745 Y122.338 E0.00484
G1 X235.588 Y125.495 E0.13999
G1 X235.459 Y125.580 E0.00484
G1 X235.114 Y125.693 E0.01136
G1 X14.886 Y125.693 E6.90512
G1 X14.541 Y125.580 E0.01136
G1 X14.412 Y125.495 E0.00484
G1 X11.255 Y122.338 E0.13999
G1 X11.170 Y122.209 E0.00484
G1 X11.057 Y121.864 E0.01136
G1 X11.057 Y110.886 E0.34423
G1 X11.076 Y110.777 E0.00345
G1 X11.253 Y110.413 E0.01270
G1 X14.412 Y107.255 E0.14005
G1 X14.541 Y107.170 E0.00484
G1 X14.886 Y107.057 E0.01136
G1 X235.146 Y107.061 E6.90610
G1 X235.202 Y107.074 E0.00181
G1 X235.125 Y107.441 F10800.000
G1 F1200.000
G1 X235.344 Y107.544 E0.00757
G1 X238.456 Y110.656 E0.13800
G1 X238.559 Y110.875 E0.00757
G1 X238.566 Y121.829 E0.34348
G1 X238.466 Y122.084 E0.00856
G1 X235.334 Y125.216 E0.13889
G1 X235.079 Y125.316 E0.00856
G1 X14.921 Y125.316 E6.90292
M73 Q16 S27
M73 P16 R27
G1 X14.666 Y125.216 E0.00856
G1 X11.534 Y122.084 E0.13889
G1 X11.434 Y121.829 E0.00856
G1 X11.441 Y110.875 E0.34348
G1 X11.544 Y110.656 E0.00757
G1 X14.666 Y107.534 E0.13845
G1 X14.921 Y107.434 E0.00856
G1 X235.066 Y107.434 E6.90251
G1 X235.107 Y107.840 F10800.000
G1 F1200.000
G1 X238.160 Y110.893 E0.13538
G1 X238.189 Y110.962 E0.00235
G1 X238.189 Y121.788 E0.33941
G1 X238.160 Y121.857 E0.00235
G1 X235.107 Y124.910 E0.13538
G1 X235.038 Y124.939 E0.00235
G1 X14.962 Y124.939 E6.90030
G1 X14.893 Y124.910 E0.00235
G1 X11.840 Y121.857 E0.13538
G1 X11.811 Y121.788 E0.00235
G1 X11.811 Y110.962 E0.33941
G1 X11.840 Y110.893 E0.00235
G1 X14.893 Y107.840 E0.13538
G1 X14.962 Y107.811 E0.00235
G1 X235.051 Y107.817 E6.90073
G1 F8640.000
G1 X237.391 Y110.132 E-0.76000
G1 E-0.04000 F2100.00000
G1 Z0.800 F10800.000
G1 X9.836 Y100.123
G1 Z0.200
G1 E0.80000 F2100.00000
G1 F1200.000
G1 X10.132 Y100.598 E0.01755
G1 X13.402 Y103.868 E0.14498
G1 X13.998 Y104.239 E0.02203
