; generated by PrusaSlicer 2.2.0+win64 on 2020-04-06 at 12:29:43 UTC

; 

; external perimeters extrusion width = 0.60mm
; perimeters extrusion width = 0.50mm
; infill extrusion width = 0.50mm
; solid infill extrusion width = 0.50mm
; top infill extrusion width = 0.45mm
; first layer extrusion width = 0.42mm

M73 P0 R123
M73 Q0 S123
M201 X1000 Y1000 Z1000 E5000 ; sets maximum accelerations, mm/sec^2
M203 X200 Y200 Z12 E120 ; sets maximum feedrates, mm/sec
M204 P1250 R1250 T1250 ; sets acceleration (P, T) and retract acceleration (R), mm/sec^2
M205 X8.00 Y8.00 Z0.40 E4.50 ; sets the jerk limits, mm/sec
M205 S0 T0 ; sets the minimum extruding and travel feed rate, mm/sec
M107
M862.3 P "MK3S" ; printer model check
M862.1 P0.4 ; nozzle diameter check
M115 U3.8.1 ; tell printer latest fw version
G90 ; use absolute coordinates
M83 ; extruder relative mode
M104 S215 ; set extruder temp
M140 S60 ; set bed temp
M190 S60 ; wait for bed temp
M109 S215 ; wait for extruder temp
G28 W ; home all without mesh bed level
G80 ; mesh bed leveling
G1 Y-3.0 F1000.0 ; go outside print area
G92 E0.0
G1 X60.0 E9.0 F1000.0 ; intro line
M73 Q0 S123
M73 P0 R122
G1 X100.0 E12.5 F1000.0 ; intro line
G92 E0.0
M221 S95
G21 ; set units to millimeters
G90 ; use absolute coordinates
M83 ; use relative distances for extrusion
M900 K30 ; Filament gcode
;BEFORE_LAYER_CHANGE
G92 E0.0
;0.2


G1 E-0.80000 F2100.00000
G1 Z0.600 F10800.000
;AFTER_LAYER_CHANGE
;0.2
G1 X14.218 Y14.755
G1 Z0.200
G1 E0.80000 F2100.00000
M204 S1000
G1 F1200.000
G1 X14.996 Y14.623 E0.02473
G1 X235.004 Y14.623 E6.89820
G1 X235.909 Y14.804 E0.02896
G1 X236.678 Y15.316 E0.02896
G1 X239.863 Y18.524 E0.14174
G1 X240.241 Y19.207 E0.02449
G1 X240.377 Y19.980 E0.02461
G1 X240.376 Y190.053 E5.33252
G1 X240.231 Y190.821 E0.02449
G1 X239.847 Y191.497 E0.02437
G1 X236.470 Y194.868 E0.14961
G1 X235.782 Y195.245 E0.02461
G1 X235.004 Y195.377 E0.02473
G1 X14.966 Y195.377 E6.89916
G1 X14.190 Y195.235 E0.02473
G1 X13.506 Y194.849 E0.02461
G1 X10.132 Y191.470 E0.14973
G1 X9.755 Y190.782 E0.02461
G1 X9.623 Y190.008 E0.02461
G1 X9.623 Y19.954 E5.33192
G1 X9.768 Y19.183 E0.02461
G1 X10.153 Y18.503 E0.02449
G1 X13.530 Y15.132 E0.14961
G1 X14.166 Y14.784 E0.02273
G1 F8640.000
G1 X14.996 Y14.623 E-0.19524
G1 X17.442 Y14.623 E-0.56476
G1 E-0.04000 F2100.00000
G1 Z0.800 F10800.000
G1 X9.435 Y34.836
G1 Z0.200
G1 E0.80000 F2100.00000
G1 F1200.000
G1 X8.356 Y33.749 E0.04803
G1 X7.658 Y32.592 E0.04234
G1 X7.305 Y31.269 E0.04293
G1 X7.287 Y19.731 E0.36177
G1 X7.515 Y18.543 E0.03796
G1 X8.343 Y17.003 E0.05481
G1 X11.931 Y13.410 E0.15922
G1 X13.214 Y12.635 E0.04698
G1 X14.623 Y12.287 E0.04552
G1 X235.370 Y12.290 E6.92137
G1 X236.727 Y12.613 E0.04374
G1 X237.952 Y13.312 E0.04423
G1 X241.623 Y16.957 E0.16220
G1 X242.461 Y18.475 E0.05434
G1 X242.713 Y19.727 E0.04005
G1 X242.695 Y31.269 E0.36191
G1 X242.342 Y32.592 E0.04293
G1 X241.644 Y33.749 E0.04234
G1 X240.565 Y34.836 E0.04802
G1 X240.188 Y35.215 F10800.000
G1 F1200.000
G1 X238.665 Y36.750 E0.06778
G1 X240.188 Y38.284 E0.06778
G1 X240.565 Y38.664 F10800.000
G1 F1200.000
G1 X241.689 Y39.795 E0.04999
G1 X242.461 Y41.225 E0.05095
G1 X242.713 Y42.477 E0.04004
G1 X242.695 Y54.019 E0.36191
G1 X242.342 Y55.342 E0.04293
G1 X241.644 Y56.499 E0.04234
G1 X240.565 Y57.586 E0.04802
G1 X240.188 Y57.965 F10800.000
G1 F1200.000
G1 X238.665 Y59.500 E0.06778
G1 X240.188 Y61.034 E0.06778
M73 Q0 S122
G1 X240.565 Y61.414 F10800.000
G1 F1200.000
G1 X241.689 Y62.545 E0.05000
G1 X242.461 Y63.975 E0.05095
G1 X242.713 Y65.227 E0.04004
G1 X242.695 Y76.769 E0.36191
M73 P0 R121
G1 X242.342 Y78.092 E0.04293
G1 X241.644 Y79.249 E0.04234
G1 X240.565 Y80.336 E0.04802
G1 X240.188 Y80.716 F10800.000
G1 F1200.000
G1 X238.665 Y82.250 E0.06777
G1 X240.188 Y83.784 E0.06777
G1 X240.565 Y84.163 F10800.000
G1 F1200.000
G1 X241.689 Y85.295 E0.05000
G1 X242.461 Y86.725 E0.05095
G1 X242.713 Y87.977 E0.04004
G1 X242.695 Y99.519 E0.36191
G1 X242.342 Y100.842 E0.04293
G1 X241.644 Y101.999 E0.04234
G1 X240.565 Y103.086 E0.04803
G1 X240.188 Y103.466 F10800.000
G1 F1200.000
G1 X238.665 Y105.000 E0.06777
G1 X240.188 Y106.534 E0.06777
G1 X240.565 Y106.913 F10800.000
G1 F1200.000
G1 X241.689 Y108.045 E0.05000
G1 X242.461 Y109.475 E0.05095
G1 X242.713 Y110.727 E0.04004
G1 X242.695 Y122.269 E0.36191
G1 X242.342 Y123.592 E0.04293
G1 X241.644 Y124.749 E0.04234
G1 X240.565 Y125.836 E0.04803
G1 X240.188 Y126.216 F10800.000
G1 F1200.000
G1 X238.665 Y127.750 E0.06777
G1 X240.188 Y129.283 E0.06777
G1 X240.565 Y129.663 F10800.000
G1 F1200.000
G1 X241.689 Y130.795 E0.05001
G1 X242.461 Y132.225 E0.05095
G1 X242.713 Y133.477 E0.04004
G1 X242.695 Y145.019 E0.36191
G1 X242.342 Y146.342 E0.04293
G1 X241.644 Y147.499 E0.04234
G1 X240.565 Y148.586 E0.04803
G1 X240.188 Y148.966 F10800.000
G1 F1200.000
G1 X238.665 Y150.500 E0.06776
G1 X240.188 Y152.033 E0.06776
G1 X240.565 Y152.413 F10800.000
G1 F1200.000
G1 X241.689 Y153.545 E0.05001
G1 X242.460 Y154.973 E0.05088
G1 X242.700 Y156.083 E0.03561
G1 X242.695 Y167.769 E0.36641
G1 X242.342 Y169.092 E0.04294
G1 X241.644 Y170.249 E0.04234
G1 X240.565 Y171.336 E0.04804
G1 X240.188 Y171.716 F10800.000
G1 F1200.000
G1 X238.665 Y173.250 E0.06776
G1 X240.188 Y174.772 E0.06751
G1 X240.565 Y175.149 F10800.000
G1 F1200.000
G1 X241.626 Y176.210 E0.04704
G1 X242.563 Y178.023 E0.06399
G1 X242.714 Y178.983 E0.03045
G1 X242.707 Y190.430 E0.35893
G1 X242.383 Y191.742 E0.04237
G1 X241.674 Y192.960 E0.04418
G1 X238.070 Y196.589 E0.16038
G1 X236.786 Y197.365 E0.04703
G1 X235.377 Y197.713 E0.04552
G1 X14.623 Y197.713 E6.92157
G1 X13.266 Y197.386 E0.04378
G1 X12.041 Y196.675 E0.04441
G1 X8.411 Y193.070 E0.16040
G1 X7.635 Y191.786 E0.04703
G1 X7.287 Y190.377 E0.04552
G1 X7.288 Y178.961 E0.35793
G1 X7.432 Y178.042 E0.02917
G1 X8.337 Y176.260 E0.06266
G1 X9.434 Y175.158 E0.04876
G1 X9.812 Y174.779 F10800.000
G1 F1200.000
G1 X11.334 Y173.249 E0.06768
G1 X9.812 Y171.715 E0.06777
G1 X9.434 Y171.335 F10800.000
G1 F1200.000
G1 X8.356 Y170.249 E0.04802
G1 X7.658 Y169.092 E0.04234
G1 X7.305 Y167.769 E0.04294
G1 X7.289 Y156.193 E0.36296
G1 X7.539 Y154.974 E0.03902
G1 X8.311 Y153.545 E0.05092
G1 X9.434 Y152.414 E0.04999
G1 X9.812 Y152.034 F10800.000
G1 F1200.000
G1 X11.335 Y150.500 E0.06778
G1 X9.812 Y148.965 E0.06778
G1 X9.434 Y148.586 F10800.000
G1 F1200.000
G1 X8.356 Y147.499 E0.04802
G1 X7.658 Y146.342 E0.04234
G1 X7.305 Y145.019 E0.04293
G1 X7.287 Y133.477 E0.36191
G1 X7.539 Y132.225 E0.04004
G1 X8.311 Y130.795 E0.05095
G1 X9.435 Y129.664 E0.04999
G1 X9.812 Y129.284 F10800.000
G1 F1200.000
G1 X11.335 Y127.750 E0.06778
G1 X9.812 Y126.215 E0.06778
G1 X9.435 Y125.836 F10800.000
G1 F1200.000
G1 X8.356 Y124.749 E0.04802
G1 X7.658 Y123.592 E0.04234
G1 X7.305 Y122.269 E0.04293
G1 X7.287 Y110.727 E0.36191
G1 X7.539 Y109.475 E0.04004
G1 X8.311 Y108.045 E0.05095
G1 X9.435 Y106.914 E0.05000
G1 X9.812 Y106.534 F10800.000
G1 F1200.000
G1 X11.335 Y105.000 E0.06778
G1 X9.812 Y103.465 E0.06777
G1 X9.435 Y103.086 F10800.000
G1 F1200.000
G1 X8.356 Y101.999 E0.04802
G1 X7.658 Y100.842 E0.04234
G1 X7.305 Y99.519 E0.04293
G1 X7.287 Y87.977 E0.36191
G1 X7.539 Y86.725 E0.04004
G1 X8.311 Y85.295 E0.05095
G1 X9.435 Y84.163 E0.05000
G1 X9.812 Y83.784 F10800.000
G1 F1200.000
G1 X11.335 Y82.250 E0.06777
G1 X9.812 Y80.716 E0.06777
G1 X9.435 Y80.336 F10800.000
G1 F1200.000
G1 X8.356 Y79.249 E0.04803
G1 X7.658 Y78.092 E0.04234
G1 X7.305 Y76.769 E0.04293
G1 X7.287 Y65.227 E0.36191
G1 X7.539 Y63.975 E0.04004
G1 X8.311 Y62.545 E0.05095
G1 X9.435 Y61.413 E0.05000
G1 X9.812 Y61.034 F10800.000
G1 F1200.000
G1 X11.335 Y59.500 E0.06777
G1 X9.812 Y57.966 E0.06777
G1 X9.435 Y57.586 F10800.000
G1 F1200.000
G1 X8.356 Y56.499 E0.04803
G1 X7.658 Y55.342 E0.04234
G1 X7.305 Y54.019 E0.04293
G1 X7.287 Y42.477 E0.36191
G1 X7.539 Y41.225 E0.04004
G1 X8.311 Y39.795 E0.05095
G1 X9.435 Y38.663 E0.05000
G1 X9.812 Y38.283 F10800.000
G1 F1200.000
G1 X11.335 Y36.750 E0.06777
G1 X9.812 Y35.216 E0.06777
G1 X9.812 Y34.685 F10800.000
G1 F1200.000
G1 X11.867 Y36.750 E0.09135
G1 X9.812 Y38.812 E0.09130
G1 X9.435 Y39.191 F10800.000
G1 F1200.000
G1 X8.630 Y39.999 E0.03575
G1 X7.884 Y41.379 E0.04919
G1 X7.664 Y42.495 E0.03566
G1 X7.676 Y53.948 E0.35911
G1 X7.996 Y55.171 E0.03965
G1 X8.667 Y56.284 E0.04076
G1 X9.435 Y57.056 E0.03413
G1 X9.812 Y57.435 F10800.000
G1 F1200.000
G1 X11.867 Y59.500 E0.09135
G1 X9.812 Y61.562 E0.09130
G1 X9.435 Y61.941 F10800.000
G1 F1200.000
G1 X8.630 Y62.749 E0.03575
G1 X7.884 Y64.129 E0.04919
G1 X7.664 Y65.245 E0.03566
G1 X7.676 Y76.698 E0.35911
G1 X7.996 Y77.921 E0.03965
G1 X8.667 Y79.034 E0.04076
G1 X9.435 Y79.806 E0.03413
G1 X9.812 Y80.185 F10800.000
G1 F1200.000
G1 X11.867 Y82.250 E0.09135
G1 X9.812 Y84.313 E0.09130
G1 X9.435 Y84.691 F10800.000
G1 F1200.000
G1 X8.630 Y85.499 E0.03575
G1 X7.884 Y86.879 E0.04919
G1 X7.664 Y87.995 E0.03566
G1 X7.676 Y99.448 E0.35911
G1 X7.996 Y100.671 E0.03965
G1 X8.667 Y101.784 E0.04076
G1 X9.435 Y102.556 E0.03413
G1 X9.812 Y102.935 F10800.000
G1 F1200.000
G1 X11.867 Y105.000 E0.09136
G1 X9.812 Y107.063 E0.09131
G1 X9.435 Y107.441 F10800.000
G1 F1200.000
G1 X8.630 Y108.249 E0.03574
G1 X7.884 Y109.629 E0.04919
G1 X7.664 Y110.745 E0.03566
G1 X7.676 Y122.198 E0.35911
G1 X7.996 Y123.421 E0.03965
G1 X8.667 Y124.534 E0.04076
G1 X9.435 Y125.306 E0.03413
G1 X9.812 Y125.685 F10800.000
G1 F1200.000
G1 X11.867 Y127.750 E0.09136
G1 X9.812 Y129.813 E0.09131
G1 X9.435 Y130.191 F10800.000
G1 F1200.000
G1 X8.630 Y130.999 E0.03574
G1 X7.884 Y132.379 E0.04919
G1 X7.664 Y133.495 E0.03566
G1 X7.676 Y144.948 E0.35911
G1 X7.996 Y146.171 E0.03965
G1 X8.667 Y147.284 E0.04076
G1 X9.434 Y148.056 E0.03412
G1 X9.812 Y148.435 F10800.000
G1 F1200.000
G1 X11.867 Y150.500 E0.09136
G1 X9.812 Y152.563 E0.09131
G1 X9.434 Y152.941 F10800.000
G1 F1200.000
G1 X8.630 Y153.749 E0.03574
G1 X7.884 Y155.128 E0.04917
G1 X7.666 Y156.211 E0.03464
G1 X7.676 Y167.698 E0.36015
G1 X7.996 Y168.921 E0.03965
G1 X8.667 Y170.034 E0.04076
G1 X9.434 Y170.806 E0.03412
G1 X9.812 Y171.185 F10800.000
G1 F1200.000
G1 X11.867 Y173.250 E0.09137
G1 X9.812 Y175.306 E0.09116
G1 X9.434 Y175.683 F10800.000
G1 F1200.000
G1 X8.660 Y176.458 E0.03434
G1 X7.783 Y178.184 E0.06073
G1 X7.664 Y179.001 E0.02588
G1 X7.664 Y190.353 E0.35594
G1 X7.994 Y191.666 E0.04245
G1 X8.693 Y192.819 E0.04227
G1 X12.253 Y196.362 E0.15748
G1 X13.383 Y197.027 E0.04111
G1 X14.646 Y197.336 E0.04078
G1 X235.353 Y197.336 E6.92011
G1 X236.666 Y197.006 E0.04245
G1 X237.819 Y196.307 E0.04227
G1 X241.362 Y192.748 E0.15747
G1 X242.025 Y191.623 E0.04091
G1 X242.330 Y190.406 E0.03934
G1 X242.336 Y178.998 E0.35771
G1 X242.195 Y178.113 E0.02810
G1 X241.339 Y176.456 E0.05847
G1 X240.565 Y175.682 E0.03430
G1 X240.188 Y175.305 F10800.000
G1 F1200.000
G1 X238.133 Y173.250 E0.09114
G1 X240.188 Y171.185 E0.09135
G1 X240.565 Y170.806 F10800.000
G1 F1200.000
G1 X241.333 Y170.034 E0.03414
G1 X242.004 Y168.921 E0.04076
G1 X242.324 Y167.698 E0.03965
G1 X242.323 Y156.103 E0.36355
G1 X242.115 Y155.128 E0.03124
G1 X241.370 Y153.749 E0.04917
G1 X240.565 Y152.941 E0.03576
G1 X240.188 Y152.562 F10800.000
G1 F1200.000
G1 X238.133 Y150.500 E0.09129
G1 X240.188 Y148.435 E0.09134
G1 X240.565 Y148.056 F10800.000
G1 F1200.000
G1 X241.333 Y147.284 E0.03414
G1 X242.004 Y146.171 E0.04076
G1 X242.324 Y144.948 E0.03965
G1 X242.336 Y133.495 E0.35911
G1 X242.116 Y132.379 E0.03566
G1 X241.370 Y130.999 E0.04919
G1 X240.565 Y130.191 E0.03575
G1 X240.188 Y129.812 F10800.000
G1 F1200.000
G1 X238.133 Y127.750 E0.09130
G1 X240.188 Y125.685 E0.09135
G1 X240.565 Y125.306 F10800.000
G1 F1200.000
G1 X241.333 Y124.534 E0.03414
G1 X242.004 Y123.421 E0.04076
G1 X242.324 Y122.198 E0.03965
G1 X242.336 Y110.745 E0.35911
G1 X242.116 Y109.629 E0.03566
G1 X241.370 Y108.249 E0.04919
G1 X240.565 Y107.441 E0.03575
G1 X240.188 Y107.062 F10800.000
G1 F1200.000
G1 X238.133 Y105.000 E0.09130
G1 X240.188 Y102.935 E0.09135
G1 X240.565 Y102.556 F10800.000
G1 F1200.000
G1 X241.333 Y101.784 E0.03413
G1 X242.004 Y100.671 E0.04076
G1 X242.324 Y99.448 E0.03965
G1 X242.336 Y87.995 E0.35911
G1 X242.116 Y86.879 E0.03566
G1 X241.370 Y85.499 E0.04919
G1 X240.565 Y84.691 E0.03575
G1 X240.188 Y84.313 F10800.000
G1 F1200.000
G1 X238.133 Y82.250 E0.09130
G1 X240.188 Y80.185 E0.09135
G1 X240.565 Y79.806 F10800.000
G1 F1200.000
G1 X241.333 Y79.034 E0.03413
G1 X242.004 Y77.921 E0.04076
G1 X242.324 Y76.698 E0.03965
G1 X242.336 Y65.245 E0.35911
G1 X242.116 Y64.129 E0.03566
G1 X241.370 Y62.749 E0.04919
G1 X240.565 Y61.941 E0.03574
G1 X240.188 Y61.563 F10800.000
G1 F1200.000
G1 X238.133 Y59.500 E0.09131
G1 X240.188 Y57.435 E0.09136
G1 X240.565 Y57.056 F10800.000
G1 F1200.000
G1 X241.333 Y56.284 E0.03413
G1 X242.004 Y55.171 E0.04076
G1 X242.324 Y53.948 E0.03965
G1 X242.336 Y42.495 E0.35911
G1 X242.116 Y41.379 E0.03566
G1 X241.370 Y39.999 E0.04919
G1 X240.565 Y39.191 E0.03574
G1 X240.188 Y38.813 F10800.000
G1 F1200.000
G1 X238.133 Y36.750 E0.09131
G1 X240.188 Y34.685 E0.09136
G1 X240.565 Y34.306 F10800.000
G1 F1200.000
G1 X241.333 Y33.534 E0.03412
G1 X242.004 Y32.421 E0.04076
G1 X242.324 Y31.198 E0.03965
G1 X242.336 Y19.745 E0.35911
G1 X242.116 Y18.629 E0.03564
G1 X241.338 Y17.205 E0.05089
G1 X237.742 Y13.626 E0.15907
G1 X236.612 Y12.972 E0.04093
G1 X235.348 Y12.667 E0.04077
G1 X14.647 Y12.664 E6.91992
M73 Q1 S121
M73 P1 R120
G1 X13.334 Y12.994 E0.04245
G1 X12.182 Y13.693 E0.04225
G1 X8.662 Y17.206 E0.15593
G1 X7.861 Y18.695 E0.05301
G1 X7.664 Y19.748 E0.03360
G1 X7.676 Y31.198 E0.35899
G1 X7.996 Y32.421 E0.03965
G1 X8.667 Y33.534 E0.04076
G1 X9.435 Y34.306 E0.03414
G1 X9.812 Y34.156 F10800.000
G1 F1200.000
G1 X12.401 Y36.750 E0.11491
G1 X9.812 Y39.339 E0.11479
G1 X9.435 Y39.716 F10800.000
G1 F1200.000
G1 X8.949 Y40.202 E0.02156
G1 X8.230 Y41.532 E0.04741
G1 X8.041 Y42.512 E0.03128
G1 X8.047 Y53.876 E0.35630
G1 X8.353 Y55.048 E0.03801
G1 X8.976 Y56.068 E0.03747
G1 X9.435 Y56.528 E0.02034
G1 X9.812 Y56.906 F10800.000
G1 F1200.000
G1 X12.401 Y59.500 E0.11492
G1 X9.812 Y62.089 E0.11479
G1 X9.435 Y62.466 F10800.000
G1 F1200.000
G1 X8.949 Y62.952 E0.02155
G1 X8.230 Y64.282 E0.04741
G1 X8.041 Y65.262 E0.03128
G1 X8.047 Y76.626 E0.35630
G1 X8.353 Y77.798 E0.03801
G1 X8.976 Y78.818 E0.03747
G1 X9.435 Y79.278 E0.02034
G1 X9.812 Y79.656 F10800.000
G1 F1200.000
G1 X12.401 Y82.250 E0.11492
G1 X9.812 Y84.839 E0.11479
G1 X9.435 Y85.216 F10800.000
G1 F1200.000
G1 X8.949 Y85.702 E0.02155
G1 X8.230 Y87.032 E0.04741
G1 X8.041 Y88.012 E0.03128
G1 X8.047 Y99.376 E0.35630
G1 X8.353 Y100.548 E0.03801
G1 X8.976 Y101.568 E0.03747
G1 X9.435 Y102.028 E0.02034
G1 X9.812 Y102.405 F10800.000
G1 F1200.000
G1 X12.401 Y105.000 E0.11492
G1 X9.812 Y107.589 E0.11479
G1 X9.435 Y107.966 F10800.000
G1 F1200.000
G1 X8.949 Y108.452 E0.02155
G1 X8.230 Y109.782 E0.04741
G1 X8.041 Y110.762 E0.03128
G1 X8.047 Y122.126 E0.35630
G1 X8.353 Y123.298 E0.03801
G1 X8.976 Y124.318 E0.03747
G1 X9.435 Y124.777 E0.02034
G1 X9.812 Y125.155 F10800.000
G1 F1200.000
G1 X12.401 Y127.750 E0.11492
G1 X9.812 Y130.339 E0.11480
G1 X9.435 Y130.716 F10800.000
G1 F1200.000
G1 X8.949 Y131.202 E0.02155
G1 X8.230 Y132.532 E0.04741
G1 X8.041 Y133.512 E0.03128
G1 X8.047 Y144.876 E0.35630
G1 X8.353 Y146.048 E0.03801
G1 X8.976 Y147.068 E0.03747
G1 X9.435 Y147.527 E0.02033
G1 X9.812 Y147.905 F10800.000
G1 F1200.000
G1 X12.401 Y150.500 E0.11493
G1 X9.812 Y153.089 E0.11480
G1 X9.434 Y153.466 F10800.000
G1 F1200.000
G1 X8.949 Y153.952 E0.02154
G1 X8.230 Y155.282 E0.04740
G1 X8.043 Y156.229 E0.03027
G1 X8.046 Y167.626 E0.35733
G1 X8.353 Y168.798 E0.03801
G1 X8.976 Y169.818 E0.03747
G1 X9.434 Y170.277 E0.02033
G1 X9.812 Y170.655 F10800.000
G1 F1200.000
G1 X12.401 Y173.250 E0.11493
G1 X9.812 Y175.839 E0.11480
G1 X9.434 Y176.216 F10800.000
G1 F1200.000
G1 X8.948 Y176.703 E0.02159
G1 X8.151 Y178.270 E0.05511
G1 X8.041 Y179.015 E0.02361
G1 X8.041 Y190.330 E0.35478
G1 X8.332 Y191.496 E0.03769
G1 X8.976 Y192.569 E0.03922
G1 X12.466 Y196.051 E0.15458
G1 X13.502 Y196.668 E0.03780
G1 X14.670 Y196.959 E0.03774
G1 X235.330 Y196.959 E6.91865
G1 X236.496 Y196.668 E0.03769
G1 X237.569 Y196.024 E0.03922
G1 X241.051 Y192.534 E0.15458
G1 X241.666 Y191.503 E0.03765
